!!!!SEGMENT: pl-wtm--r-1556--004_stefani-jozef--msza-no-15-sanctus.krn
!!!cenid: 18xx:1832
!!!COM: Stefani, Józef
!!!COM-rismID: pe30024097
!!!CDT: 1800/04/16-1876/03/19
!!!CNT: Polish
!!!OPR: Msza No 15
!!!OTL: Sanctus
!!!OMV: 004
!!!PDT: 1858
!!!AGN: Sacred; Mass
!!!SMS-siglum: PL-Wtm
!!!SMS-shelfmark: R 1556
!!!SMS-shelfwork: 001-004 M
!!!SMS-variant:
!!!SMS-altvar:
!!!NIFC-rismSourceID: 1001115188
!!!NIFC-islandoraID: pl-wtm:26851
!!!URL-pdf-islandora: https://repozytorium.nifc.pl/islandora/object/pl-wtm%3A26851/datastream/PDF/view
!!!URL-scan: https://polish.musicsources.pl/pl/lokalizacje/galeria/rekopisy/6357 @EN{Scan on Polish Music Sources Website} @PL{Skany w portalu Dziedzictwo Muzyki Polskiej w otwartym dostępie}
!!!ONB-nifc: UWAGA: części Mszy: 1. Kyrie, 2. Gloria, 3. Credo, 4. Sanctus, 5. Benedictus, 6. Agnus Dei, 7. Dona nobis
!!!OMD: Adagio maestoso.
!!!AIN: 1 alto 1 cbass 1 cello 1 clars 1 cor 4 empty 1 fagot 1 flt 1 oboe 1 soprn 1 tenor 1 timpa 1 tromp 1 tromt 1 viola
!!!key:
**kern	**dynam	**kern	**dynam	**kern	**text	**text	**kern	**kern	**kern	**text	**kern	**kern	**kern	**dynam	**kern	**dynam	**kern	**dynam	**kern	**dynam	**kern	**dynam	**kern	**dynam	**kern	**dynam	**kern	**dynam	**kern	**dynam	**kern	**dynam
*part18	*part18	*part17	*part17	*part16	*part16	*part16	*part15	*part14	*part13	*part13	*part12	*part11	*part10	*part10	*part9	*part9	*part8	*part8	*part7	*part7	*part6	*part6	*part5	*part5	*part4	*part4	*part3	*part3	*part2	*part2	*part1	*part1
*staff18	*	*staff17	*	*staff16	*staff16	*staff16	*staff15	*staff14	*staff13	*staff13	*staff12	*staff11	*staff10	*	*staff9	*	*staff8	*	*staff7	*	*staff6	*	*staff5	*	*staff4	*	*staff3	*	*staff2	*	*staff1	*
*Icbass	*	*Icello	*	*Iempty	*	*	*Itenor	*Ialto	*Isoprn	*	*Iviola	*Iempty	*Iempty	*	*Itimpa	*	*Itromt	*	*Itromp	*	*Ifagot	*	*Icor	*	*Iclars	*	*Ioboe	*	*Iempty	*	*Iflt	*
*I"C: Basſi	*	*I"Violoncelli	*	*I"Baſso	*	*	*I"Tenore	*I"Alto	*I"Soprano	*	*I"Viole	*I""Violini	*I""Violini	*	*I"Timpani Es. b.	*	*I"Tromboni	*	*I"Trombe in B.	*	*I"Fagotti	*	*I"Corni in Es.	*	*I"Clarinetti in Es.	*	*I"Oboe	*	*	*	*I"Flauto	*
*	*	*	*	*group2	*	*	*group2	*group2	*group2	*	*group1	*group1	*group1	*	*	*	*	*	*	*	*	*	*	*	*	*	*	*	*	*	*	*
*clefF4	*	*clefF4	*	*clefF4	*	*	*clefC4	*clefC3	*clefC1	*	*clefC3	*clefG2	*clefG2	*	*clefF4	*	*clefF4	*	*clefG2	*	*clefF4	*	*clefG2	*	*clefG2	*	*clefG2	*	*clefG2	*	*clefG2	*
*	*	*	*	*	*	*	*	*	*	*	*	*	*	*	*	*	*	*	*ITrd1c2	*	*	*	*ITrd5c9	*	*ITrd1c2	*	*	*	*	*	*	*
*k[b-e-a-]	*	*k[b-e-a-]	*	*k[b-e-a-]	*	*	*k[b-e-a-]	*k[b-e-a-]	*k[b-e-a-]	*	*k[b-e-a-]	*k[b-e-a-]	*k[b-e-a-]	*	*	*	*k[b-e-a-]	*	*k[b-e-a-]	*	*k[b-e-a-]	*	*k[b-e-a-]	*	*k[b-e-a-]	*	*k[b-e-a-]	*	*k[b-e-a-]	*	*k[b-e-a-]	*
*E-:	*	*E-:	*	*E-:	*	*	*E-:	*E-:	*E-:	*	*E-:	*E-:	*E-:	*	*E-:	*	*E-:	*	*E-:	*	*E-:	*	*	*	*E-:	*	*E-:	*	*E-:	*	*E-:	*
*M4/4	*	*M4/4	*	*M4/4	*	*	*M4/4	*M4/4	*M4/4	*	*M4/4	*M4/4	*M4/4	*	*M4/4	*	*M4/4	*	*M4/4	*	*M4/4	*	*M4/4	*	*M4/4	*	*M4/4	*	*M4/4	*	*M4/4	*
*met(c)	*	*met(c)	*	*met(c)	*	*	*met(c)	*met(c)	*met(c)	*	*met(c)	*met(c)	*met(c)	*	*met(c)	*	*met(c)	*	*met(c)	*	*met(c)	*	*met(c)	*	*met(c)	*	*met(c)	*	*met(c)	*	*met(c)	*
*all\right	*	*all\right	*	*all\right	*	*	*all\right	*all\right	*all\right	*	*all\right	*all\right	*all\right	*	*all\right	*	*all\right	*	*all\right	*	*all\right	*	*all\right	*	*all\right	*	*all\right	*	*all\right	*	*all\right	*
!	!LO:DY:rj	!	!LO:DY:rj	!LO:TX:t=P:problem=kolejność znaków E- BB- AA-	!	!	!	!	!LO:TX:t=P:problem=kolejność znaków b- ee- a-	!	!	!	!	!LO:DY:rj	!LO:TX:t=P:problem=cue notes E- B- przed oznaczeniem metrycznym [określenie rodzaju kotła]	!	!	!	!	!	!	!	!	!	!	!	!	!	!	!	!	!
(16BB-/LL	f	(y16BB-/LLyy	fy	8r	.	.	8r	8r	8r	.	(16B-\LL	(16B-/LL	(16B-/LL	f	8ryy	.	8r	.	8r	.	8r	.	8r	.	8r	.	8r	.	8ryy	.	8r	.
32C/L	.	32C/Lyy	.	.	.	.	.	.	.	.	32c\L	32c/L	32c/L	.	.	.	.	.	.	.	.	.	.	.	.	.	.	.	.	.	.	.
32D/JJJ	.	32D/JJJyy	.	.	.	.	.	.	.	.	32d\JJJ	32d/JJJ	32d/JJJ	.	.	.	.	.	.	.	.	.	.	.	.	.	.	.	.	.	.	.
=1	=1	=1	=1	=1	=1	=1	=1	=1	=1	=1	=1	=1	=1	=1	=1	=1	=1	=1	=1	=1	=1	=1	=1	=1	=1	=1	=1	=1	=1	=1	=1	=1
4E-\)	.	4E-\)yy	.	1r	.	.	1r	1r	1r	.	4e-\)	4e-/)	4e-/)	.	1r	.	1r	.	1r	.	1r	.	1r	.	1r	.	1r	.	1ryy	.	1r	.
!	!	!	!	!	!	!	!	!	!	!	!	!LO:TX:a:t=Unis	!	!	!	!	!	!	!	!	!	!	!	!	!	!	!	!	!	!	!	!
8.r	.	8.ryy	.	.	.	.	.	.	.	.	8.r	8.ryy	8.r	.	.	.	.	.	.	.	.	.	.	.	.	.	.	.	.	.	.	.
(32E-\LLL	.	(y32E-\LLLyy	.	.	.	.	.	.	.	.	(32E-/LLL	(y32e-/LLLyy	(32e-/LLL	.	.	.	.	.	.	.	.	.	.	.	.	.	.	.	.	.	.	.
32F\JJJ	.	32F\JJJyy	.	.	.	.	.	.	.	.	32F/JJJ	32f/JJJyy	32f/JJJ	.	.	.	.	.	.	.	.	.	.	.	.	.	.	.	.	.	.	.
8G\L)	.	8G\L)yy	.	.	.	.	.	.	.	.	8G/L)	8g/L)yy	8g/L)	.	.	.	.	.	.	.	.	.	.	.	.	.	.	.	.	.	.	.
16r	.	16ryy	.	.	.	.	.	.	.	.	16r	16ryy	16r	.	.	.	.	.	.	.	.	.	.	.	.	.	.	.	.	.	.	.
(32G\LL	.	(y32G\LLyy	.	.	.	.	.	.	.	.	(32G/LL	(y32g/LLyy	(32g/LL	.	.	.	.	.	.	.	.	.	.	.	.	.	.	.	.	.	.	.
32A-\JJJ	.	32A-\JJJyy	.	.	.	.	.	.	.	.	32A-/JJJ	32a-/JJJyy	32a-/JJJ	.	.	.	.	.	.	.	.	.	.	.	.	.	.	.	.	.	.	.
8B-\L)	.	8B-\L)yy	.	.	.	.	.	.	.	.	8B-/L)	8b-/L)yy	8b-/L)	.	.	.	.	.	.	.	.	.	.	.	.	.	.	.	.	.	.	.
32r	.	32ryy	.	.	.	.	.	.	.	.	32r	32ryy	32r	.	.	.	.	.	.	.	.	.	.	.	.	.	.	.	.	.	.	.
(32B-\LL	.	(y32B-\LLyy	.	.	.	.	.	.	.	.	(<32B-/LL	(y32b-/LLyy	(32b-/LL	.	.	.	.	.	.	.	.	.	.	.	.	.	.	.	.	.	.	.
32c\	.	32c\yy	.	.	.	.	.	.	.	.	32c/	32cc/yy	32cc/	.	.	.	.	.	.	.	.	.	.	.	.	.	.	.	.	.	.	.
32d\JJJ	.	32d\JJJyy	.	.	.	.	.	.	.	.	32d/JJJ	32dd/JJJ)yy	32dd/JJJ)	.	.	.	.	.	.	.	.	.	.	.	.	.	.	.	.	.	.	.
=2	=2	=2	=2	=2	=2	=2	=2	=2	=2	=2	=2	=2	=2	=2	=2	=2	=2	=2	=2	=2	=2	=2	=2	=2	=2	=2	=2	=2	=2	=2	=2	=2
*	*	*	*	*	*	*	*^	*	*	*	*	*	*	*	*	*	*	*	*^	*	*	*	*^	*	*	*	*	*	*	*	*	*
4e-\)	.	4e-\)yy	.	4r	.	.	4r	4ryy	4r	4r	.	4e-\)	4ee-\yy	4ee-\	.	4r	.	4r	.	4r	4ryy	.	4r	.	4r	4ryy	.	4r	.	4r	.	4ryy	.	4r	.
*	*	*	*	*	*	*	*	*	*	*	*	*	*	*	*	*2\right	*	*2\right	*	*2\right	*	*	*2\right	*	*2\right	*2\right	*	*2\right	*	*2\right	*	*	*	*	*
*	*	*	*	*2\right	*	*	*2\right	*	*2\right	*2\right	*	*	*	*	*	*tremolo	*	*	*	*	*	*	*	*	*	*	*	*	*	*	*	*2\right	*	*2\right	*
!	!	!	!	!	!	!	!	!	!	!	!	!	!	!	!	!	!LO:DY:rj	!	!LO:DY:rj	!	!	!	!	!	!	!	!LO:DY:rj	!	!	!	!LO:DY:rj	!	!LO:DY:rj	!	!LO:DY:rj
4r	.	4ryy	.	2E-\	San-	.	2e-/	2B-\	2b-\	2gg\	San-	4r	4ryy	4r	.	32E-y\LLL	f	2e- 2G 2E-\	f	2b-/	2g\	.	2B- 2E-\	.	2g/	2e-\	f	2gg 2ee-\	.	2bb- 2gg\	f	2ggg\yy	fy	2ggg\	f
.	.	.	.	.	.	.	.	.	.	.	.	.	.	.	.	32E-y\	.	.	.	.	.	.	.	.	.	.	.	.	.	.	.	.	.	.	.
.	.	.	.	.	.	.	.	.	.	.	.	.	.	.	.	32E-y\	.	.	.	.	.	.	.	.	.	.	.	.	.	.	.	.	.	.	.
.	.	.	.	.	.	.	.	.	.	.	.	.	.	.	.	32E-y\	.	.	.	.	.	.	.	.	.	.	.	.	.	.	.	.	.	.	.
.	.	.	.	.	.	.	.	.	.	.	.	.	.	.	.	32E-y\	.	.	.	.	.	.	.	.	.	.	.	.	.	.	.	.	.	.	.
.	.	.	.	.	.	.	.	.	.	.	.	.	.	.	.	32E-y\	.	.	.	.	.	.	.	.	.	.	.	.	.	.	.	.	.	.	.
.	.	.	.	.	.	.	.	.	.	.	.	.	.	.	.	32E-y\	.	.	.	.	.	.	.	.	.	.	.	.	.	.	.	.	.	.	.
.	.	.	.	.	.	.	.	.	.	.	.	.	.	.	.	32E-y\	.	.	.	.	.	.	.	.	.	.	.	.	.	.	.	.	.	.	.
4r	.	4ryy	.	.	.	.	.	.	.	.	.	4r	4ryy	4r	.	32E-y\	.	.	.	.	.	.	.	.	.	.	.	.	.	.	.	.	.	.	.
.	.	.	.	.	.	.	.	.	.	.	.	.	.	.	.	32E-y\	.	.	.	.	.	.	.	.	.	.	.	.	.	.	.	.	.	.	.
.	.	.	.	.	.	.	.	.	.	.	.	.	.	.	.	32E-y\	.	.	.	.	.	.	.	.	.	.	.	.	.	.	.	.	.	.	.
.	.	.	.	.	.	.	.	.	.	.	.	.	.	.	.	32E-y\	.	.	.	.	.	.	.	.	.	.	.	.	.	.	.	.	.	.	.
.	.	.	.	.	.	.	.	.	.	.	.	.	.	.	.	32E-y\	.	.	.	.	.	.	.	.	.	.	.	.	.	.	.	.	.	.	.
.	.	.	.	.	.	.	.	.	.	.	.	.	.	.	.	32E-y\	.	.	.	.	.	.	.	.	.	.	.	.	.	.	.	.	.	.	.
.	.	.	.	.	.	.	.	.	.	.	.	.	.	.	.	32E-y\	.	.	.	.	.	.	.	.	.	.	.	.	.	.	.	.	.	.	.
.	.	.	.	.	.	.	.	.	.	.	.	.	.	.	.	32E-y\JJJ	.	.	.	.	.	.	.	.	.	.	.	.	.	.	.	.	.	.	.
*	*	*	*	*	*	*	*	*	*	*	*	*	*	*	*	*Xtremolo	*	*	*	*	*	*	*	*	*	*	*	*	*	*	*	*	*	*	*
8r	.	8ryy	.	4E-\	-ctus	.	4e-/	4B-\	4b-\	4gg\	-ctus	8r	8ryy	8r	.	4E-y\	.	4e- 4G 4E-\	.	4b-/	4g\	.	4B- 4E-\	.	4g/	4e-\	.	4gg 4ee-\	.	4bb- 4gg\	.	4ggg\yy	.	4ggg\	.
(16GG/LL	.	(y16GG/LLyy	.	.	.	.	.	.	.	.	.	(16G/LL	(y16G/LLyy	(16G/LL	.	.	.	.	.	.	.	.	.	.	.	.	.	.	.	.	.	.	.	.	.
32AAn/L	.	32AAn/Lyy	.	.	.	.	.	.	.	.	.	32An/L	32An/Lyy	32An/L	.	.	.	.	.	.	.	.	.	.	.	.	.	.	.	.	.	.	.	.	.
32BBn/JJJ	.	32BBn/JJJyy	.	.	.	.	.	.	.	.	.	32Bn/JJJ)	32Bn/JJJyy	32Bn/JJJ	.	.	.	.	.	.	.	.	.	.	.	.	.	.	.	.	.	.	.	.	.
!!LO:PB:g=original
=3	=3	=3	=3	=3	=3	=3	=3	=3	=3	=3	=3	=3	=3	=3	=3	=3	=3	=3	=3	=3	=3	=3	=3	=3	=3	=3	=3	=3	=3	=3	=3	=3	=3	=3	=3
*	*	*	*	*	*	*	*	*	*	*	*	*	*	*	*	*	*	*	*	*	*	*	*	*	*	*	*	*^	*	*^	*	*	*	*	*
*	*	*	*	*	*	*	*	*	*	*	*	*	*	*	*	*tremolo	*	*	*	*	*	*	*	*	*	*	*	*	*	*	*	*	*	*	*	*	*
!LO:TX:t=P:problem=brak zakończenia łuku	!	!LO:TX:t=P:problem=brak zakończenia łuku	!	!	!	!	!	!	!	!	!	!	!	!	!	!	!	!	!	!	!	!	!	!	!	!	!	!	!	!	!	!	!	!	!	!	!
4C/)	.	4C/)yy	.	2c\	.	.	2e-/	2e-\	2g\	2gg\	San-	4c/	4c/)yy	4c/)	.	32E-y\LLL	.	2.e- 2.G 2.C\	.	2.g/	2.e-\	.	2.c 2.C\	.	2.g/	2.e-\	.	(2gg 2ee-\	2ryy	.	(2gg/	2ee-\	.	(y2ggg\yy	.	(2ggg\	.
.	.	.	.	.	.	.	.	.	.	.	.	.	.	.	.	32E-y\	.	.	.	.	.	.	.	.	.	.	.	.	.	.	.	.	.	.	.	.	.
.	.	.	.	.	.	.	.	.	.	.	.	.	.	.	.	32E-y\	.	.	.	.	.	.	.	.	.	.	.	.	.	.	.	.	.	.	.	.	.
.	.	.	.	.	.	.	.	.	.	.	.	.	.	.	.	32E-y\	.	.	.	.	.	.	.	.	.	.	.	.	.	.	.	.	.	.	.	.	.
.	.	.	.	.	.	.	.	.	.	.	.	.	.	.	.	32E-y\	.	.	.	.	.	.	.	.	.	.	.	.	.	.	.	.	.	.	.	.	.
.	.	.	.	.	.	.	.	.	.	.	.	.	.	.	.	32E-y\	.	.	.	.	.	.	.	.	.	.	.	.	.	.	.	.	.	.	.	.	.
.	.	.	.	.	.	.	.	.	.	.	.	.	.	.	.	32E-y\	.	.	.	.	.	.	.	.	.	.	.	.	.	.	.	.	.	.	.	.	.
.	.	.	.	.	.	.	.	.	.	.	.	.	.	.	.	32E-y\	.	.	.	.	.	.	.	.	.	.	.	.	.	.	.	.	.	.	.	.	.
8.r	.	8.ryy	.	.	.	.	.	.	.	.	.	8.r	8.ryy	8.r	.	32E-y\	.	.	.	.	.	.	.	.	.	.	.	.	.	.	.	.	.	.	.	.	.
.	.	.	.	.	.	.	.	.	.	.	.	.	.	.	.	32E-y\	.	.	.	.	.	.	.	.	.	.	.	.	.	.	.	.	.	.	.	.	.
.	.	.	.	.	.	.	.	.	.	.	.	.	.	.	.	32E-y\	.	.	.	.	.	.	.	.	.	.	.	.	.	.	.	.	.	.	.	.	.
.	.	.	.	.	.	.	.	.	.	.	.	.	.	.	.	32E-y\	.	.	.	.	.	.	.	.	.	.	.	.	.	.	.	.	.	.	.	.	.
.	.	.	.	.	.	.	.	.	.	.	.	.	.	.	.	32E-y\	.	.	.	.	.	.	.	.	.	.	.	.	.	.	.	.	.	.	.	.	.
.	.	.	.	.	.	.	.	.	.	.	.	.	.	.	.	32E-y\	.	.	.	.	.	.	.	.	.	.	.	.	.	.	.	.	.	.	.	.	.
(<32C/LLL	.	(y<32C/LLLyy	.	.	.	.	.	.	.	.	.	(32c\LLL	(y32c/LLLyy	(32c/LLL	.	32E-y\	.	.	.	.	.	.	.	.	.	.	.	.	.	.	.	.	.	.	.	.	.
32D/JJJ	.	32D/JJJyy	.	.	.	.	.	.	.	.	.	32d\JJJ	32d/JJJyy	32d/JJJ	.	32E-y\JJJ	.	.	.	.	.	.	.	.	.	.	.	.	.	.	.	.	.	.	.	.	.
*	*	*	*	*	*	*	*	*	*	*	*	*	*	*	*	*Xtremolo	*	*	*	*	*	*	*	*	*	*	*	*	*	*	*	*	*	*	*	*	*
8E-\L)	.	8E-\L)yy	.	4c\	.	.	4e-/	4e-\	4g\	4ee-\	-ctus	8e-\L)	8e-/L)yy	8e-/L)	.	4E-y\	.	.	.	.	.	.	.	.	.	.	.	4ee-/)	4cc\	.	4ee-/)	4cc\	.	4eee-\)yy	.	4eee-\)	.
16r	.	16ryy	.	.	.	.	.	.	.	.	.	16r	16ryy	16r	.	.	.	.	.	.	.	.	.	.	.	.	.	.	.	.	.	.	.	.	.	.	.
(32E-\LL	.	(y32E-\LLyy	.	.	.	.	.	.	.	.	.	(32e-\LL	(y32e-/LLyy	(32e-/LL	.	.	.	.	.	.	.	.	.	.	.	.	.	.	.	.	.	.	.	.	.	.	.
32F\JJJ	.	32F\JJJyy	.	.	.	.	.	.	.	.	.	32f\JJJ	32f/JJJyy	32f/JJJ	.	.	.	.	.	.	.	.	.	.	.	.	.	.	.	.	.	.	.	.	.	.	.
!	!	!	!	!	!	!	!	!	!	!	!	!LO:TX:t=P:problem=mixed beam	!	!	!	!	!	!	!	!	!	!	!	!	!	!	!	!	!	!	!	!	!	!	!	!	!
8G\L)	.	8G\L)yy	.	4r	.	.	4r	4ryy	4r	4r	.	8g\L)	8g/L)yy	8g/L)	.	4r	.	4r	.	4r	4ryy	.	4r	.	4r	4ryy	.	4r	4ryy	.	4r	4ryy	.	4ryy	.	4r	.
32r	.	32ryy	.	.	.	.	.	.	.	.	.	32r	32ryy	32r	.	.	.	.	.	.	.	.	.	.	.	.	.	.	.	.	.	.	.	.	.	.	.
(32G\LL	.	(y32G\LLyy	.	.	.	.	.	.	.	.	.	(32G/LL	(y<32g/LLyy	(<32g/LL	.	.	.	.	.	.	.	.	.	.	.	.	.	.	.	.	.	.	.	.	.	.	.
32An\	.	32An\yy	.	.	.	.	.	.	.	.	.	32An/	32an/yy	32an/	.	.	.	.	.	.	.	.	.	.	.	.	.	.	.	.	.	.	.	.	.	.	.
32Bn\JJJ	.	32Bn\JJJyy	.	.	.	.	.	.	.	.	.	32Bn/JJJ	32bn/JJJyy	32bn/JJJ	.	.	.	.	.	.	.	.	.	.	.	.	.	.	.	.	.	.	.	.	.	.	.
*	*	*	*	*	*	*	*v	*v	*	*	*	*	*	*	*	*	*	*	*	*	*	*	*	*	*	*	*	*	*	*	*	*	*	*	*	*	*
=4	=4	=4	=4	=4	=4	=4	=4	=4	=4	=4	=4	=4	=4	=4	=4	=4	=4	=4	=4	=4	=4	=4	=4	=4	=4	=4	=4	=4	=4	=4	=4	=4	=4	=4	=4	=4
4c\)	.	4c\)yy	.	4r	.	.	4r	4r	4r	.	4c/)	4cc\)yy	4cc\)	.	1r	.	4r	.	4r	4ryy	.	4r	.	4r	4ryy	.	4r	4ryy	.	4r	4ryy	.	4ryy	.	4r	.
4r	.	4ryy	.	2c\	.	.	2c\	2g\	2ee-\	San-	4r	4ryy	4r	.	.	.	2c 2G 2C\	.	2g/	2e-\	.	2c 2C\	<	2g/	2e-\	.	2cc/	2cc\	<	2gg/	2ee-\	.	2eee-\yy	<	2eee-\	<
2r	.	2ryy	.	.	.	.	.	.	.	.	2r	2ryy	2r	.	.	.	.	.	.	.	.	.	.	.	.	.	.	.	.	.	.	.	.	.	.	.
.	.	.	.	4B-\	.	.	4c\	4g\	4een\	-ctus	.	.	.	.	.	.	4c 4G 4BB-\	.	4g/	4eX\	.	4B- 4BB-\	[[	4g/	4eX\	.	4cc/	4cc\	.	4gg/	4een\	.	4eeen\yy	.	4eeen\	.
=5	=5	=5	=5	=5	=5	=5	=5	=5	=5	=5	=5	=5	=5	=5	=5	=5	=5	=5	=5	=5	=5	=5	=5	=5	=5	=5	=5	=5	=5	=5	=5	=5	=5	=5	=5	=5
*	*	*	*	*	*	*	*	*	*	*	*	*	*	*	*	*	*^	*	*	*	*	*	*	*	*	*	*	*	*	*	*	*	*	*	*	*
1r	.	1ryy	.	4A-\	.	.	4c\	4f\	4ff\	Do-	1r	1ryy	1r	.	1r	.	2.c 2.F/	2.AA-\	.	4f/	4f\	.	2.A- 2.AA-\	.	4f/	4f\	.	2.cc/	2.cc\	.	2.ff\	2.ff/	.	2.fff\yy	.	2.fff\	.
.	.	.	.	8A-\	.	.	8c\	8f\	8ff\	-mi-	.	.	.	.	.	.	.	.	.	8f/L	8f\L	.	.	.	8f/L	8f\L	.	.	.	.	.	.	.	.	.	.	.
.	.	.	.	8A-\	.	.	8c\	8f\	8ff\	-nus	.	.	.	.	.	.	.	.	.	8f/J	8f\J	.	.	.	8f/J	8f\J	.	.	.	[	.	.	.	.	[	.	[
.	.	.	.	4A-\	.	.	2c\	2f\	(4ff\	De-	.	.	.	.	.	.	.	.	.	4f/	4f\	.	.	.	4f/	4f\	.	.	.	.	.	.	.	.	.	.	.
.	.	.	.	4An\	.	.	.	.	4ee-X\)	.	.	.	.	.	.	.	4c 4F/	4AAn\	.	4f/	4f\	.	4An 4AAn\	.	4f/	4f\	.	4ff/	4cc\	.	4ccc 4ee-X\	4ryy	.	4eee-X\yy	.	4eee-X\	.
*	*	*	*	*	*	*	*	*	*	*	*	*	*	*	*	*	*v	*v	*	*	*	*	*	*	*v	*v	*	*v	*v	*	*v	*v	*	*	*	*	*
*	*	*	*	*	*	*	*	*	*	*	*	*	*	*	*	*	*	*	*v	*v	*	*	*	*	*	*	*	*	*	*	*	*	*
=6	=6	=6	=6	=6	=6	=6	=6	=6	=6	=6	=6	=6	=6	=6	=6	=6	=6	=6	=6	=6	=6	=6	=6	=6	=6	=6	=6	=6	=6	=6	=6	=6
4r	.	4ryy	.	2B-\	.	.	2d\	2f\	2dd\	-us	4r	4ryy	4r	.	4BB-y/	.	4d 4F 4BB-\	.	4b- 4B-/	.	4B- 4BB-\	.	2.f 2.B-/	.	2.ff 2.b-\	.	2.bb- 2.dd\	.	2.ddd\yy	.	2.ddd\	.
8r	.	8ryy	.	.	.	.	.	.	.	.	8r	8ryy	8r	.	4r	.	4r	.	4r	.	8r	.	.	.	.	.	.	.	.	.	.	.
(32F/LLL	.	(y32F/LLLyy	.	.	.	.	.	.	.	.	(32f/LLL	(y32f/LLLyy	(32f/LLL	.	.	.	.	.	.	.	(32F/LLL	.	.	.	.	.	.	.	.	.	.	.
32E-/	.	32E-/yy	.	.	.	.	.	.	.	.	32e-/	32e-/yy	32e-/	.	.	.	.	.	.	.	32E-/	.	.	.	.	.	.	.	.	.	.	.
32D/	.	32D/yy	.	.	.	.	.	.	.	.	32d/	32d/yy	32d/	.	.	.	.	.	.	.	32D/	.	.	.	.	.	.	.	.	.	.	.
32C/JJJ	.	32C/JJJyy	.	.	.	.	.	.	.	.	32c/JJJ	32c/JJJyy	32c/JJJ	.	.	.	.	.	.	.	32C/JJJ	.	.	.	.	.	.	.	.	.	.	.
4BB-/)	.	4BB-/)yy	.	4B-\	.	.	4f\	4b-\	4dd\	De-	4B-/)	4B-/)yy	4B-/)	.	8.r	.	8.r	.	8.r	.	4BB-/)	.	.	.	.	.	.	.	.	.	.	.
.	.	.	.	.	.	.	.	.	.	.	.	.	.	.	16BB-y/KL	.	16dKL 16F 16BB-\	.	16b-KL 16B-/	.	.	.	.	.	.	.	.	.	.	.	.	.
4BB-/	.	4BB-/yy	.	4BB-/	.	.	4d\	4b-\	4ff\	-us	4f 4B-/	4bb-yy 4ddyy 4f\yy	4bb- 4dd 4f\	.	8.BB-y/	.	8.d 8.F 8.BB-\	.	8.b- 8.B-/	.	4B- 4BB-/	.	4f 4B-/	.	4ff 4b-\	.	4bb- 4dd\	.	4fff\yy	.	4fff\	.
.	.	.	.	.	.	.	.	.	.	.	.	.	.	.	16BB-y/Jk	.	16dJk 16F 16BB-\	.	16b-Jk 16B-/	.	.	.	.	.	.	.	.	.	.	.	.	.
!!LO:PB:g=original
=7	=7	=7	=7	=7	=7	=7	=7	=7	=7	=7	=7	=7	=7	=7	=7	=7	=7	=7	=7	=7	=7	=7	=7	=7	=7	=7	=7	=7	=7	=7	=7	=7
*	*	*	*	*	*	*	*	*	*	*	*	*	*	*	*	*	*	*	*	*	*	*	*^	*	*	*	*	*	*	*	*	*
4E-\	.	4E-\yy	.	2.E-\	.	.	2.e-\	2.b-\	2.gg\	Sa-	4g 4B- 4E-/	4ggyy 4b-yy 4e-\yy	4gg 4b- 4e-\	.	4E-y\	.	4e- 4G 4E-\	.	4b- 4B-/	.	4E- 4EE-/	.	2.g/	2.e-\	.	2.gg 2.b-\	.	2.bb- 2.ee-\	.	2.ggg\yy	.	2.ggg\	.
8r	.	8ryy	.	.	.	.	.	.	.	.	8r	8ryy	8r	.	4r	.	4r	.	4r	.	8r	.	.	.	.	.	.	.	.	.	.	.	.
(32B-\LLL	.	(y32B-\LLLyy	.	.	.	.	.	.	.	.	(32b-\LLL	(y32b-/LLLyy	(32b-/LLL	.	.	.	.	.	.	.	(32B-LLL 32BB-/	.	.	.	.	.	.	.	.	.	.	.	.
32A-\	.	32A-\yy	.	.	.	.	.	.	.	.	32a-\	32a-/yy	32a-/	.	.	.	.	.	.	.	32A- 32AA-/	.	.	.	.	.	.	.	.	.	.	.	.
32G\	.	32G\yy	.	.	.	.	.	.	.	.	32g\	32g/yy	32g/	.	.	.	.	.	.	.	32G 32GG/	.	.	.	.	.	.	.	.	.	.	.	.
32F\JJJ	.	32F\JJJyy	.	.	.	.	.	.	.	.	32f\JJJ	32f/JJJyy	32f/JJJ	.	.	.	.	.	.	.	32FJJJ 32FF/	.	.	.	.	.	.	.	.	.	.	.	.
4E-\)	.	4E-\)yy	.	.	.	.	.	.	.	.	4e-\)	4e-/)yy	4e-/)	.	8.r	.	8.r	.	8.r	.	4E- 4EE-/)	.	.	.	.	.	.	.	.	.	.	.	.
.	.	.	.	.	.	.	.	.	.	.	.	.	.	.	16E-y\KL	.	16e-KL 16G 16E-\	.	16b-KL 16B-/	.	.	.	.	.	.	.	.	.	.	.	.	.	.
4E-\	.	4E-\yy	.	4E-\	.	.	4e-\	4b-\	4gg\	-ba-	4g 4B- 4E-/	4ggyy 4b-yy 4e-\yy	4gg 4b- 4e-\	.	8.E-y\	.	8.e- 8.G 8.E-\	.	8.b- 8.B-/	.	4E- 4EE-/	.	4g/	4e-\	.	4gg 4b-\	.	4bb- 4ee-\	.	4ggg\yy	.	4ggg\	.
.	.	.	.	.	.	.	.	.	.	.	.	.	.	.	16E-y\Jk	.	16e-Jk 16G 16E-\	.	16b-Jk 16B-/	.	.	.	.	.	.	.	.	.	.	.	.	.	.
*	*	*	*	*	*	*	*	*	*	*	*	*	*	*	*	*	*	*	*	*	*	*	*v	*v	*	*	*	*	*	*	*	*	*
=8	=8	=8	=8	=8	=8	=8	=8	=8	=8	=8	=8	=8	=8	=8	=8	=8	=8	=8	=8	=8	=8	=8	=8	=8	=8	=8	=8	=8	=8	=8	=8	=8
*	*	*	*	*	*	*	*	*	*	*	*	*	*	*	*	*	*	*	*rep	*	*	*	*	*	*	*	*	*	*	*	*	*
4BB-/	.	4BB-/yy	.	2BB-/	.	.	2d\	2b-\	2ff\	-oth	4f 4B-/	4ffyy 4b-yy 4d/yy	4ff 4b- 4d/	.	4BB-y/	.	4d 4F 4BB-\	.	4b- 4B-/	.	4B- 4BB-\	.	2f 2B-/	.	2ff 2b-\	.	2bb- 2dd\	.	2fff\yy	.	2fff\	.
8r	.	8ryy	.	.	.	.	.	.	.	.	8r	8ryy	8r	.	4r	.	4r	.	4r	.	8r	.	.	.	.	.	.	.	.	.	.	.
(32F/LLL	.	(y32F/LLLyy	.	.	.	.	.	.	.	.	(32f/LLL	(y32f/LLLyy	(32f/LLL	.	.	.	.	.	.	.	(32F/LLL	.	.	.	.	.	.	.	.	.	.	.
32E-/	.	32E-/yy	.	.	.	.	.	.	.	.	32e-/	32e-/yy	32e-/	.	.	.	.	.	.	.	32E-/	.	.	.	.	.	.	.	.	.	.	.
32D/	.	32D/yy	.	.	.	.	.	.	.	.	32d/	32d/yy	32d/	.	.	.	.	.	.	.	32D/	.	.	.	.	.	.	.	.	.	.	.
32C/JJJ	.	32C/JJJyy	.	.	.	.	.	.	.	.	32c/JJJ	32c/JJJyy	32c/JJJ	.	.	.	.	.	.	.	32C/JJJ	.	.	.	.	.	.	.	.	.	.	.
4BB-/)	.	4BB-/)yy	.	(2BB-/	.	.	2d\	2b-\	(2ff\	Sa-	4B-/)	4B-/)yy	4B-/)	.	8.r	.	8.r	.	8.r	.	4BB-/)	.	2f 2B-/	.	2ff 2b-\	.	2bb- 2dd\	.	(y2fff\yy	.	(2fff\	.
.	.	.	.	.	.	.	.	.	.	.	.	.	.	.	16BB-y/KL	.	16dKL 16F 16BB-\	.	16b-KL 16B-/	.	.	.	.	.	.	.	.	.	.	.	.	.
4BB-/	.	4BB-/yy	.	.	.	.	.	.	.	.	4f 4B-/	4bb-yy 4ddyy 4f\yy	4bb- 4dd 4f\	.	8.BB-y/	.	8.d 8.F 8.BB-\	.	8.b- 8.B-/	.	4B- 4BB-\	.	.	.	.	.	.	.	.	.	.	.
.	.	.	.	.	.	.	.	.	.	.	.	.	.	.	16BB-y/Jk	.	16dJk 16F 16BB-\	.	16b-Jk 16B-/	.	.	.	.	.	.	.	.	.	.	.	.	.
*	*	*	*	*	*	*	*	*	*	*	*	*	*	*	*	*	*	*	*Xrep	*	*	*	*	*	*	*	*	*	*	*	*	*
=9	=9	=9	=9	=9	=9	=9	=9	=9	=9	=9	=9	=9	=9	=9	=9	=9	=9	=9	=9	=9	=9	=9	=9	=9	=9	=9	=9	=9	=9	=9	=9	=9
*	*	*	*	*	*	*	*	*	*	*	*	*	*	*	*	*	*	*	*	*	*	*	*^	*	*	*	*	*	*	*	*	*
*	*	*	*	*	*	*	*	*	*	*	*	*	*	*	*	*	*	*	*rep	*	*	*	*	*	*	*	*	*	*	*	*	*	*
4E-\	.	4E-\yy	.	2.E-\)	.	.	2.e-\	2.b-\	2.gg\)	.	4g 4B- 4E-/	4ggyy 4b-yy 4e-\yy	4gg 4b- 4e-\	.	4E-y\	.	4e- 4G 4E-\	.	4b- 4B-/	.	4E- 4EE-/	.	2.g/	2.e-\	.	2.gg 2.b-\	.	2.bb- 2.ee-\	.	2.ggg\)yy	.	2.ggg\)	.
8r	.	8ryy	.	.	.	.	.	.	.	.	8r	8ryy	8r	.	4r	.	4r	.	4r	.	8r	.	.	.	.	.	.	.	.	.	.	.	.
(32B-\LLL	.	(y32B-\LLLyy	.	.	.	.	.	.	.	.	(32b-\LLL	(y32b-/LLLyy	(32b-/LLL	.	.	.	.	.	.	.	(32B-LLL 32BB-/	.	.	.	.	.	.	.	.	.	.	.	.
32A-\	.	32A-\yy	.	.	.	.	.	.	.	.	32a-\	32an/yy	32an/	.	.	.	.	.	.	.	32A- 32AA-/	.	.	.	.	.	.	.	.	.	.	.	.
32G\	.	32G\yy	.	.	.	.	.	.	.	.	32g\	32g/yy	32g/	.	.	.	.	.	.	.	32G 32GG/	.	.	.	.	.	.	.	.	.	.	.	.
32F\JJJ	.	32F\JJJyy	.	.	.	.	.	.	.	.	32f\JJJ	32f/JJJyy	32f/JJJ	.	.	.	.	.	.	.	32FJJJ 32FF/	.	.	.	.	.	.	.	.	.	.	.	.
4E-\)	.	4E-\)yy	.	.	.	.	.	.	.	.	4e-\)	4e-/)yy	4e-/)	.	8.r	.	8.r	.	8.r	.	4E- 4EE-/)	.	.	.	.	.	.	.	.	.	.	.	.
.	.	.	.	.	.	.	.	.	.	.	.	.	.	.	16E-y\KL	.	16e-KL 16G 16E-\	.	16b-KL 16B-/	.	.	.	.	.	.	.	.	.	.	.	.	.	.
4E-\	.	4E-\yy	.	4e- 4E-\	.	.	4e-\	4b-\	4gg\	-ba-	4g 4B- 4E-/	4ggyy 4b-yy 4e-\yy	4gg 4b- 4e-\	.	8.E-y\	.	8.e- 8.G 8.E-\	.	8.b- 8.B-/	.	4E- 4EE-/	.	4g/	4e-\	.	4gg 4b-\	.	4bb- 4ee-\	.	4ggg\yy	.	4ggg\	.
.	.	.	.	.	.	.	.	.	.	.	.	.	.	.	16E-y\Jk	.	16e-Jk 16G 16E-\	.	16b-Jk 16B-/	.	.	.	.	.	.	.	.	.	.	.	.	.	.
*	*	*	*	*	*	*	*	*	*	*	*	*	*	*	*	*	*	*	*	*	*	*	*v	*v	*	*	*	*	*	*	*	*	*
*	*	*	*	*	*	*	*	*	*	*	*	*	*	*	*	*	*	*	*Xrep	*	*	*	*	*	*	*	*	*	*	*	*	*
=10	=10	=10	=10	=10	=10	=10	=10	=10	=10	=10	=10	=10	=10	=10	=10	=10	=10	=10	=10	=10	=10	=10	=10	=10	=10	=10	=10	=10	=10	=10	=10	=10
4BB-/	.	4BB-/yy	.	1B- 1BB-	.	.	1f 1d	1b-	1bb-	-oth	4f 4B-/	4bb-yy 4ddyy 4f\yy	4bb- 4dd 4f\	.	4BB-y/	.	4d 4F 4BB-\	.	4b- 4B-/	.	4B- 4BB-\	.	1f 1B-	.	[1ff [>1b-	.	[1bb- [>1dd	.	[y1bb-yy	.	[1bb-	.
!	!	!	!	!	!	!	!	!	!	!	!	!	!	!	!	!	!	!	!	!	!LO:TX:a:t=col b&colon;	!	!	!	!	!	!	!	!	!	!	!
8r	.	8ryy	.	.	.	.	.	.	.	.	8r	8ryy	8r	.	8.r	.	8.r	.	8.r	.	8ryy	.	.	.	.	.	.	.	.	.	.	.
32r	.	32ryy	.	.	.	.	.	.	.	.	32r	32ryy	32r	.	.	.	.	.	.	.	32ryy	.	.	.	.	.	.	.	.	.	.	.
(32B-\LLL	.	(y32B-\LLLyy	.	.	.	.	.	.	.	.	(32b-\LLL	(y32bb-\LLLyy	(32bb-\LLL	.	.	.	.	.	.	.	(y32B-\LLLyy	.	.	.	.	.	.	.	.	.	.	.
!LO:TX:a:t=P:problem=♮ above	!	!LO:TX:a:t=P:problem=♮ above	!	!	!	!	!	!	!	!	!	!	!	!	!	!	!	!	!	!	!	!	!	!	!	!	!	!	!	!	!	!
32An\	.	32An\yy	.	.	.	.	.	.	.	.	32an\	32aan\yy	32aan\	.	32BB-y/LLL	.	32dLLL 32F 32BB-\	.	32b-LLL 32B-/	.	32An\yy	.	.	.	.	.	.	.	.	.	.	.
32G\JJJ	.	32G\JJJyy	.	.	.	.	.	.	.	.	32g\JJJ	32gg\JJJyy	32gg\JJJ	.	32BB-y/JJJ	.	32dJJJ 32F 32BB-\	.	32b-JJJ 32B-/	.	32G\JJJyy	.	.	.	.	.	.	.	.	.	.	.
8F\L)	.	8F\L)yy	.	.	.	.	.	.	.	.	8f\L)	8ff\L)yy	8ff\L)	.	4BB-y/	.	4d 4F 4BB-\	.	4b- 4B-/	.	8F\L)yy	.	.	.	.	.	.	.	.	.	.	.
32r	.	32ryy	.	.	.	.	.	.	.	.	32r	32ryy	32r	.	.	.	.	.	.	.	32ryy	.	.	.	.	.	.	.	.	.	.	.
(32G\LL	.	(y32G\LLyy	.	.	.	.	.	.	.	.	(32g\LL	(y32gg\LLyy	(32gg\LL	.	.	.	.	.	.	.	(y32G\LLyy	.	.	.	.	.	.	.	.	.	.	.
32F\	.	32F\yy	.	.	.	.	.	.	.	.	32f\	32ff\yy	32ff\	.	.	.	.	.	.	.	32F\yy	.	.	.	.	.	.	.	.	.	.	.
32E-\JJJ	.	32E-\JJJyy	.	.	.	.	.	.	.	.	32e-\JJJ	32ee-\JJJyy	32ee-\JJJ	.	.	.	.	.	.	.	32E-\JJJyy	.	.	.	.	.	.	.	.	.	.	.
8D\L)	.	8D\L)yy	.	.	.	.	.	.	.	.	8d\L)	8dd\L)yy	8dd\L)	.	8.r	.	8.r	.	8.r	.	8D\L)yy	.	.	.	.	.	.	.	.	.	.	.
32r	.	32ryy	.	.	.	.	.	.	.	.	32r	32ryy	32r	.	.	.	.	.	.	.	32ryy	.	.	.	.	.	.	.	.	.	.	.
(32E-\LL	.	(y32E-\LLyy	.	.	.	.	.	.	.	.	(32e-\LL	(y32ee-\LLyy	(32ee-\LL	.	.	.	.	.	.	.	(y32E-\LLyy	.	.	.	.	.	.	.	.	.	.	.
32D\	.	32D\yy	.	.	.	.	.	.	.	.	32d\	32dd\yy	32dd\	.	32BB-y/LLL	.	32dLLL 32F 32BB-\	.	32b-LLL 32B-/	.	32D\yy	.	.	.	.	.	.	.	.	.	.	.
32C\JJJ	.	32C\JJJyy	.	.	.	.	.	.	.	.	32c\JJJ	32cc\JJJyy	32cc\JJJ	.	32BB-y/JJJ	.	32dJJJ 32F 32BB-\	.	32b-JJJ 32B-/	.	32C\JJJyy	.	.	.	.	.	.	.	.	.	.	.
!!LO:PB:g=original
=11	=11	=11	=11	=11	=11	=11	=11	=11	=11	=11	=11	=11	=11	=11	=11	=11	=11	=11	=11	=11	=11	=11	=11	=11	=11	=11	=11	=11	=11	=11	=11	=11
*M6/8	*	*M6/8	*	*M6/8	*	*	*M6/8	*M6/8	*M6/8	*	*M6/8	*M6/8	*M6/8	*	*M6/8	*	*M6/8	*	*M6/8	*	*M6/8	*	*M6/8	*	*M6/8	*	*M6/8	*	*M6/8	*	*M6/8	*
*	*	*	*	*	*	*	*^	*	*	*	*	*	*	*	*	*	*	*	*	*	*^	*	*	*	*	*	*^	*	*	*	*	*
!LO:TX:t=P:problem=brak zakończenia łuku	!	!LO:TX:t=P:problem=brak zakończenia łuku	!	!	!	!	!	!	!	!	!	!LO:TX:t=P:problem=brak zakończenia łuku	!LO:TX:t=P:problem=brak zakończenia łuku	!LO:TX:t=P:problem=brak zakończenia łuku	!	!	!	!	!	!	!	!LO:TX:t=P:problem=brak zakończenia łuku	!	!	!	!	!LO:TX:t=P:problem=brak zakończenia ligatury	!	!LO:TX:t=P:problem=brak zakończenia ligatury	!	!	!	!	!	!
4BB-/)	.	4BB-/)yy	.	4B- 4BB-\	.	.	4f/	4d\	4b-\	4bb-\	oth.	4B-/)	4b-\)	4b-\)	.	4BB-y/	.	4d 4F 4BB-\	.	4b- 4B-/	.	4BB-/)	4BB-\	.	4f 4B-/	.	4ff] 4b-\]	.	4bb-] 4dd\]	4.ryy	.	4bb-\]yy	.	4bb-\]	.
8r	.	8ryy	.	8r	.	.	8r	8ryy	8r	8r	.	8r	8r	8r	.	8r	.	8r	.	8r	.	8r	8ryy	.	8r	.	8r	.	8r	.	.	8ryy	.	8r	.
!	!LO:DY:rj	!	!LO:DY:rj	!	!	!	!	!	!	!	!	!	!	!	!	!	!	!	!	!	!	!	!	!LO:DY:rj	!	!	!	!LO:DY:rj:a	!	!	!	!	!	!	!
8B-'\L	p	8B-'\Lyy	py	8B-\	.	.	8B-\	4.ryy	8B-/	8d/	Ple-	8B-'/L	8B-'/L	8d'/L	p	4r	.	4r	.	4.ryy	.	8B-|\L	4.ryy	p	4r	.	8dL 8B-|/	p	8b-^/L	8b-\L	.	8dd'\Lyy	py	8dd|\L	p
8F'\	.	8F'\yy	.	8F\	.	.	8B-\	.	8d/	8f/	-ni	8B-'/	8d'/	8f'/	.	.	.	.	.	.	.	8F|\	.	.	.	.	8f 8d|/	.	8dd|/	8b-\	.	8ff'\yy	.	8ff|\	.
8D'\J	.	8D'\Jyy	.	8D\	.	.	8d\	.	8f\	8b-/	sunt	8d'/J	8f'/J	8b-'/J	.	8r	.	8r	.	.	.	8D|\J	.	.	8r	.	8b-J 8f|/	.	8ff|/J	8dd\J	.	8bb-'\Jyy	.	8bb-|\J	.
*	*	*	*	*	*	*	*v	*v	*	*	*	*	*	*	*	*	*	*	*	*	*	*v	*v	*	*	*	*	*	*v	*v	*	*	*	*	*
=12	=12	=12	=12	=12	=12	=12	=12	=12	=12	=12	=12	=12	=12	=12	=12	=12	=12	=12	=12	=12	=12	=12	=12	=12	=12	=12	=12	=12	=12	=12	=12	=12
*	*	*	*	*	*	*	*	*	*	*	*	*	*	*	*	*	*	*	*	*	*	*	*	*	*^	*	*	*	*	*	*	*
(4BB-/	.	(y4BB-/yy	.	4BB-/	.	.	4f\	4b-\	4dd\	cae-	(4f\	(4b-/	(4dd\	.	2.r	.	2.r	.	2.ryy	.	(4BB-/	.	2.r	.	(4dd/	4b-\	.	(4bb- 4ff\	.	(y4ddd\yy	.	(4ddd\	.
8B-\)	.	8B-\)yy	.	8BB-/	.	.	8d\	8f\	8b-\	-li	8d\)	8f/)	8b-\)	.	.	.	.	.	.	.	8B-\)	.	.	.	8b-/)	8f\	.	8ff 8dd\)	.	8bb-\)yy	.	8bb-\)	.
8B-'\L	.	8B-'\Lyy	.	8B-\	.	.	8B-\	8d\	8f/	cae-	8B-'/L	8d'/L	8f'/L	.	.	.	.	.	.	.	8B-|\L	.	.	.	8fL 8d|/	4.ryy	.	8ddL 8b-|\	.	8ff'\Lyy	.	8ff|\L	.
8F'\	.	8F'\yy	.	8F\	.	.	8d\	8f\	8b-\	-li	8d'/	8f'/	8b-'/	.	.	.	.	.	.	.	8F|\	.	.	.	8b- 8f|/	.	.	8ff 8dd|\	.	8bb-'\yy	.	8bb-|\	.
8D'\J	.	8D'\Jyy	.	8D\	.	.	8f\	8b-\	8dd\	et	8f'/J	8b-'/J	8dd'/J	.	.	.	.	.	.	.	8D|\J	.	.	.	8ddJ 8b-|/	.	.	8bb-J 8ff|\	.	8ddd'\Jyy	.	8ddd|\J	.
=13	=13	=13	=13	=13	=13	=13	=13	=13	=13	=13	=13	=13	=13	=13	=13	=13	=13	=13	=13	=13	=13	=13	=13	=13	=13	=13	=13	=13	=13	=13	=13	=13	=13
*	*	*	*	*	*	*	*	*	*	*	*	*	*	*	*	*	*	*	*	*	*^	*	*^	*	*	*	*	*^	*	*	*	*	*
4.BB-/	.	4.BB-/yy	.	4BB-/	.	.	4d\	4b-\	4ff\	ter-	(4b-\	(4dd\	(4ff\	.	4r	.	4r	.	4r	.	(4BB-/	4BB-\	.	4r	4.ryy	.	(4ff/	4dd\	.	(4.bb-/	4dd\	.	(y4fff\yy	.	(4fff\	.
!	!	!	!	!	!	!	!	!	!	!	!	!	!	!	!	!	!	!	!LO:TX:t=P:problem=brak pauzy 8	!	!	!	!	!	!	!	!	!	!	!	!	!	!	!	!	!
.	.	.	.	8BB-/	.	.	8f\	8b-\	8dd\	-ra	8f\)	8b-\)	8dd\)	.	8r	.	8r	.	8ryy	.	8B- 8BB-\)	8ryy	.	8r	.	.	8dd/)	8b-\	.	.	8ff\	.	8ddd\)yy	.	8ddd\)	.
*	*	*	*	*	*	*	*	*	*	*	*	*	*	*	*tremolo	*	*	*	*	*	*	*	*	*	*	*	*	*	*	*	*	*	*	*	*	*
[4.C/	.	[y4.C/yy	.	[4.C/	.	.	[4.c\	[4.g\	([4.ee-\	glo-	[4.c/	[4.g/	([4.ee-\	.	16E-y\LL	.	[4.e- [4.G [>4.C\	.	4.cc 4.c/	.	(<4.c 4.C\	4.ryy	.	4.g/	4.e-\	.	4.ee- 4.cc/	4.g\	.	4.gg/)	4.ee-\	.	(y[y4.eee-\yy	.	([4.eee-\	.
.	.	.	.	.	.	.	.	.	.	.	.	.	.	.	16E-y\	.	.	.	.	.	.	.	.	.	.	.	.	.	.	.	.	.	.	.	.	.
.	.	.	.	.	.	.	.	.	.	.	.	.	.	.	16E-y\	.	.	.	.	.	.	.	.	.	.	.	.	.	.	.	.	.	.	.	.	.
.	.	.	.	.	.	.	.	.	.	.	.	.	.	.	16E-y\	.	.	.	.	.	.	.	.	.	.	.	.	.	.	.	.	.	.	<	.	<
.	<	.	<	.	.	.	.	.	.	.	.	.	.	<	16E-y\	.	.	.	.	.	.	.	.	.	.	<	.	.	.	.	.	.	.	.	.	.
.	.	.	.	.	.	.	.	.	.	.	.	.	.	.	16E-y\JJ	.	.	.	.	.	.	.	.	.	.	.	.	.	.	.	.	<	.	.	.	.
*	*	*	*	*	*	*	*	*	*	*	*	*	*	*	*Xtremolo	*	*	*	*	*	*	*	*	*	*	*	*	*	*	*	*	*	*	*	*	*
*	*	*	*	*	*	*	*	*	*	*	*	*	*	*	*	*	*	*	*	*	*v	*v	*	*	*	*	*	*	*	*	*	*	*	*	*	*
=14	=14	=14	=14	=14	=14	=14	=14	=14	=14	=14	=14	=14	=14	=14	=14	=14	=14	=14	=14	=14	=14	=14	=14	=14	=14	=14	=14	=14	=14	=14	=14	=14	=14	=14	=14
*	*	*	*	*	*	*	*	*	*	*	*	*	*	*	*	*	*^	*	*	*	*	*	*	*	*	*	*	*	*	*	*	*	*	*	*
(4C/]	.	(y4C/]yy	.	(4C/]	.	.	4.c\]	4.g\]	4ee-\]	.	(>4c/]	4g/]	4ee-\]	.	4E-y\	.	4e-] 4G/]	4C\]	.	2.cc 2.c/	.	4c 4C\	.	4.g/	4e-\	.	2.cc/	4.g\	.	4.gg/	4ee-\	.	4eee-\]yy	.	4eee-\]	.
8B-\	.	8B-\yy	.	8B-\)	.	.	.	.	8een\)	.	8B-/	8cc 8g/	8een 8cc\	.	8r	.	8en 8G/	8BB-\	.	.	.	8B- 8BB-\	.	.	8eX\	.	.	.	.	.	8een\	.	8eeen\yy	.	8eeen\	.
4An\	.	4An\yy	.	4An\	.	.	4c\	4f\	4ff\	-ri-	4An/	4cc 4g/	4ff 4cc\	.	4r	.	4f/	4An 4AAn\	.	.	.	4An 4AAn\	.	4f/	4f\	.	.	4f\	.	4ff/	4ff\	.	4fff\)yy	.	4fff\)	.
8A-X\)	[[	8A-X\)yy	[[	8A-X\	.	.	8c\	8cc\	8ff#X\	-a	8A-X/)	8cc 8g/	8ff#X 8cc\)	[[	8r	.	8f#X/	8A-X 8AA-X\	.	.	.	8A-X 8AA\)	.	8f#X/	8f#\	[[	.	8cc\	.	8ccc/	8ff#X\	[[	8fff#X\yy	[[	8fff#X\	[[
*	*	*	*	*	*	*	*	*	*	*	*	*	*	*	*	*	*v	*v	*	*	*	*	*	*	*	*	*	*	*	*	*	*	*	*	*	*
!!LO:PB:g=original
=15	=15	=15	=15	=15	=15	=15	=15	=15	=15	=15	=15	=15	=15	=15	=15	=15	=15	=15	=15	=15	=15	=15	=15	=15	=15	=15	=15	=15	=15	=15	=15	=15	=15	=15	=15
!	!	!	!	!	!	!	!	!	!	!	!	!	!	!	!	!	!	!LO:DY:rj	!	!	!	!	!	!	!LO:DY:rj	!	!	!	!	!	!LO:DY:rj	!	!LO:DY:rj	!	!LO:DY:rj
(4.G\	.	(yy4.G\yy	.	4.G\	tu-	.	4.d\	4.bn\	4.gg\	tu-	4.d 4.G/	4.bn 4.g/	4.gg 4.bn\	.	2.r	.	[4.g [4.G [4.GG\	f	[4.bX [4.d/	.	[4.G [4.GG/	.	[4.g/	4.g\	f	[4.dd/	[4.bX\	.	4.bbn/	4.gg\	f	(y4.ggg\yy	fy	(4.ggg\	f
4G\)	.	4G\)yy	.	4G\	-a	.	4Bn\	4g\	4g\	-a	4d 4G/	4g 4Bn/	4g 4G/	.	.	.	4g] 4G] 4GG\]	.	4b] 4d/]	.	4G] 4GG/]	.	4g/]	4g\	.	4dd/]	4b\]	.	4bb/	4gg 4bn\	.	4gg\)yy	.	4gg\)	.
!	!	!	!	!	!	!	!	!	!	!	!	!	!	!	!	!	!	!	!	!	!	!	!	!	!	!	!	!	!	!	!	!	!	!LO:TX:t=P:problem=odsyłacz A dopisany ołówkiem [odnosi się do karty nr 0056 - powrót po Benedicuts]	!
8G\	.	8G\yy	.	8G\	O-	.	8r	8r	8r	.	8r	8r	8r	.	.	.	8r	.	8r	.	8G 8GG/	.	8r	8ryy	.	8r	8ryy	.	8r	8ryy	.	8ryy	.	8r	.
*	*	*	*	*	*	*	*	*	*	*	*	*	*	*	*	*	*	*	*	*	*	*	*v	*v	*	*	*	*	*v	*v	*	*	*	*	*
*	*	*	*	*	*	*	*	*	*	*	*	*	*	*	*	*	*	*	*	*	*	*	*	*	*v	*v	*	*	*	*	*	*	*
=16	=16	=16	=16	=16	=16	=16	=16	=16	=16	=16	=16	=16	=16	=16	=16	=16	=16	=16	=16	=16	=16	=16	=16	=16	=16	=16	=16	=16	=16	=16	=16	=16
4c\	.	4c\yy	.	4c\	-san-	.	2.r	2.r	2.r	.	2.r	2.r	2.r	.	2.r	.	2.r	.	2.r	.	4c 4C\	.	2.r	.	2.r	.	2.r	.	2.ryy	.	2.r	.
8B-\	.	8B-\yy	.	8B-\	-na	.	.	.	.	.	.	.	.	.	.	.	.	.	.	.	8B- 8BB-\	.	.	.	.	.	.	.	.	.	.	.
(8A-X\L	.	(y8A-X\Lyy	.	8A-X\L	in	.	.	.	.	.	.	.	.	.	.	.	.	.	.	.	8A-XL 8AA-X/	.	.	.	.	.	.	.	.	.	.	.
8G\)	.	8G\)yy	.	8G\J	.	.	.	.	.	.	.	.	.	.	.	.	.	.	.	.	8G 8GG/	.	.	.	.	.	.	.	.	.	.	.
8F'\J	.	8F'\Jyy	.	8F\	ex-	.	.	.	.	.	.	.	.	.	.	.	.	.	.	.	8FJ 8FF/	.	.	.	.	.	.	.	.	.	.	.
=17	=17	=17	=17	=17	=17	=17	=17	=17	=17	=17	=17	=17	=17	=17	=17	=17	=17	=17	=17	=17	=17	=17	=17	=17	=17	=17	=17	=17	=17	=17	=17	=17
*	*	*	*	*	*	*	*	*	*	*	*	*	*	*	*	*	*	*	*^	*	*	*	*	*	*^	*	*^	*	*	*	*	*
*	*	*	*	*	*	*	*	*	*	*	*	*	*	*	*	*	*	*	*	*^	*	*	*	*	*	*	*	*	*	*	*	*	*	*	*
(4.B-\	.	(y4.B-\yy	.	4.B-\	-cael-	.	4r	4r	4r	.	4r	4r	4r	.	2.r	.	2.r	.	4r	2.rdd	2.rd	.	4.B- 4.BB-\	.	2.r	.	4r	4ryy	.	4r	4ryy	.	4ryy	.	4r	.
.	.	.	.	.	.	.	8r	8r	8r	.	8r	8r	8r	.	.	.	.	.	8r	.	.	.	.	.	.	.	8r	8ryy	.	8r	8ryy	.	8ryy	.	8r	.
4G\)	.	4G\)yy	.	4G\	-sis	.	4r	4r	4r	.	4r	4r	4r	.	.	.	.	.	4r	.	.	.	4G 4GG/	.	.	.	4r	4ryy	.	4r	4ryy	.	4ryy	.	4r	.
8G\	.	8G\yy	.	8G\	O-	.	8e-\	8b-\	8ee-\	O-	8e-\	8b-/	8ee-\	.	.	.	.	.	8e-/	.	.	.	8G 8GG/	.	.	.	8ee-/	8b-\	.	8bb-/	8ee-\	.	8eee-\yy	.	8eee-\	.
*	*	*	*	*	*	*	*	*	*	*	*	*	*	*	*	*	*	*	*	*v	*v	*	*	*	*	*	*	*	*	*	*	*	*	*	*	*
=18	=18	=18	=18	=18	=18	=18	=18	=18	=18	=18	=18	=18	=18	=18	=18	=18	=18	=18	=18	=18	=18	=18	=18	=18	=18	=18	=18	=18	=18	=18	=18	=18	=18	=18	=18
*	*	*	*	*	*	*	*	*	*	*	*^	*	*	*	*	*	*	*	*	*	*	*	*	*^	*	*	*	*	*	*	*	*	*	*	*
4A-\	.	4A-\yy	.	4A-\	-san-	.	4e-\	4a-\	4cc\	-san-	4e- 4A-\	4ryy	4a-/	4cc\	.	2.r	.	2.r	.	4c/	2.r	.	4A- 4AA-/	.	4r	4ryy	.	4cc/	4a-\	.	4aa-/	4ee-\	.	4ccc\yy	.	4ccc\	.
8B-\	.	8B-\yy	.	8B-\	-na	.	8c\	8g\	8een\	-na	8c/	8B-\	8g/	8een\	.	.	.	.	.	8eX/	.	<	8B- 8BB-/	.	8r	8ryy	.	8eeX/	8g\	.	8gg/	8cc\	.	8eeen\yy	.	8eeen\	.
8A-\L	.	8A-\Lyy	.	8A-\L	in	.	4c\	8f\L	8ff\L	in	8c/L	8A-\L	(8f/L	(8ff\L	.	.	.	.	.	(8f/L	.	.	8A-L 8AA-/	.	4r	4ryy	.	8ff/L	8f\L	.	8ff/L	4cc\	.	(y8fff\Lyy	.	(8fff\L	.
8G\	.	8G\yy	.	8G\J	.	.	.	8en\J	8gg\J	.	8c/	8G\	8en/	8gg\	.	.	.	.	.	8g/	.	.	8G 8GG/	.	.	.	.	8gg/	8eX\	.	8een/	.	.	8ggg\yy	.	8ggg\	.
8F\J	.	8F\Jyy	.	8F\	ex-	.	8c\	8f\	8aa-\	ex-	8c/J	8F\J	8f/J)	8aa-\J)	.	.	.	.	.	8a-X/J	.	[[	8FJ 8FF/	.	8f/	8f\	.	8aa-/J	8f\J	.	8ff/J	8cc\	.	8aaa-\J)yy	.	8aaa-\J)	.
*	*	*	*	*	*	*	*	*	*	*	*v	*v	*	*	*	*	*	*	*	*	*	*	*	*	*	*	*	*	*	*	*	*	*	*	*	*	*
=19	=19	=19	=19	=19	=19	=19	=19	=19	=19	=19	=19	=19	=19	=19	=19	=19	=19	=19	=19	=19	=19	=19	=19	=19	=19	=19	=19	=19	=19	=19	=19	=19	=19	=19	=19	=19
!	!	!	!	!	!	!	!	!	!	!	!	!	!	!	!	!	!	!LO:DY:rj	!	!	!LO:DY:rj	!	!	!	!	!	!	!	!	!	!	!	!	!	!	!
4B-\	.	4B-\yy	.	(4B-\	-cael-	.	(4e-\	(4g\	(4b-\	-cael-	4e- 4B-\	4g/	(4b-\	.	4BB-y/	.	4e- 4G 4BB-\	f	4b-/)	4b-\	f	4B- 4BB-\	.	4g/	4e-\	.	4b-/	4g\	.	4gg/	4ee-\	.	4bb-\yy	.	4bb-\	.
8BB-/	.	8BB-/yy	.	8BB-/)	.	.	8f\)	8a-\)	8dd\)	.	8f 8B-\	8a- 8B-/	8dd\	.	8BB-y/	.	8d 8F 8BB-\	.	8dd 8a-X\	8ryy	.	8B- 8BB-\	.	8f 8B-/	8ryy	.	8dd/	8a-\	.	8aa-/	8ff\	.	8ddd\yy	.	8ddd\	.
4E-\	.	4E-\yy	.	4E-\	-sis	.	4e-\	4g\	4ee-\	-sis	4e- 4B-\	4g 4B-/	4ee-\)	.	4E-y\	.	4e- 4G 4E-\	.	4ee- 4g\	4.ryy	.	4B- 4E-\	.	4e- 4G/	4.ryy	.	4ee-/	4g\	.	4gg/	4ee-\	.	4eee-\yy	.	4eee-\	.
8E-\	.	8E-\yy	.	8E-\	O-	.	8G/	8r	8r	.	8G/	8r	8r	.	8r	.	8r	.	8g 8e-/	.	.	8G 8E-\	.	8g 8e-\	.	.	8r	8ryy	.	8r	8ryy	.	8ryy	.	8r	.
*	*	*	*	*	*	*	*	*	*	*	*	*	*	*	*	*	*	*	*v	*v	*	*	*	*v	*v	*	*	*	*	*	*	*	*	*	*	*
!!LO:PB:g=original
=20	=20	=20	=20	=20	=20	=20	=20	=20	=20	=20	=20	=20	=20	=20	=20	=20	=20	=20	=20	=20	=20	=20	=20	=20	=20	=20	=20	=20	=20	=20	=20	=20	=20	=20
*	*	*	*	*	*	*	*	*	*	*	*	*	*	*	*	*	*	*	*	*	*^	*	*	*	*	*	*	*	*	*	*	*	*	*
!	!	!	!	!LO:TX:t=P:problem=skreślony fragment w drugim wersie	!	!	!	!	!	!	!	!	!	!	!	!	!	!	!	!	!	!	!	!	!	!	!	!	!	!	!	!	!	!	!
(4G\	.	(y4G\yy	.	(4G\	-san-	[[cael-	(4B-\	4r	4r	.	4r	4r	4r	.	4r	.	4r	.	(>4b- 4g/	.	(4B- [4G\	2ryy	.	(4b- 4g\	.	4r	4ryy	.	4r	4ryy	.	4ryy	.	4r	.
8E-\)	.	8E-\)yy	.	8E-\)	.	.	8G/)	8r	8r	.	8r	8r	8r	.	8r	.	8r	.	8g 8e-/	.	8G] 8E-\)	.	.	8g 8e-\)	.	8r	8ryy	.	8r	8ryy	.	8ryy	.	8r	.
8G\	.	8G\yy	.	8G\	-na	-sis]]	8B-\	8r	8r	.	8r	8r	8r	.	8r	.	8r	.	8b- 8g/)	.	8B- 8G\	.	.	8b- 8g\	.	8r	8ryy	.	8r	8ryy	.	8ryy	.	8r	.
8G'\L	.	8G'\Lyy	.	8G\	in	.	8B-\	8b-\	8ee-\	in	8B-L 8G'/	8b-'/L	8ee-'\L	.	8E-y\L	.	8B-L 8G'\	.	8e-/L	.	8G'/L	8G\L	.	8gL 8e-/	.	8b-/L	8b-\L	.	8ee-'/L	8b-\L	.	8ee-'\Lyy	.	8ee-'\L	.
8E-'\J	.	8E-'\Jyy	.	8E-\	ex-	.	8e-\	8b-\	8gg\	ex-	8e-J 8G/	8b-'/J	8gg'\J	.	8E-y\J	.	8e-J 8G 8E-'\	.	8g/J	.	8E-'/J	8E-\J	.	8e-J 8B-/	.	8ee-/J	8b-\J	.	8gg'/J	8b-\J	.	8gg'\Jyy	.	8gg'\J	.
=21	=21	=21	=21	=21	=21	=21	=21	=21	=21	=21	=21	=21	=21	=21	=21	=21	=21	=21	=21	=21	=21	=21	=21	=21	=21	=21	=21	=21	=21	=21	=21	=21	=21	=21	=21
*	*	*	*	*	*	*	*	*	*	*	*	*	*	*	*	*	*	*	*^	*	*	*	*	*	*	*	*	*	*	*	*	*	*	*	*
*	*	*	*	*	*	*	*	*	*	*	*	*	*	*	*tremolo	*	*	*	*	*	*	*	*	*	*	*	*	*	*	*	*	*	*	*	*	*
!	!	!	!	!	!	!	!	!	!	!	!	!	!	!	!	!	!LO:S:s=2:note:problem=note-level slur	!	!	!	!	!	!	!	!	!	!	!	!	!	!	!	!	!	!	!
(4.BB-/	.	(y4.BB-/yy	.	4.BB-/	-cel-	.	(4d\	(4b-\	(4bb-\	-cael-	(4d 4F\	4b-/	(4bb-\	.	16BB-y/LL	.	(4.d (4.F (4.BB-\	.	4b-/	4b-\	.	(4.B- 4.BB-\	4.ryy	.	4f 4B-/	.	4dd/	4b-\	.	(4bb-/	4b-\	.	(y4bb-\yy	.	(4bb-\	.
.	.	.	.	.	.	.	.	.	.	.	.	.	.	.	16BB-y/	.	.	.	.	.	.	.	.	.	.	.	.	.	.	.	.	.	.	.	.	.
.	.	.	.	.	.	.	.	.	.	.	.	.	.	.	16BB-y/	.	.	.	.	.	.	.	.	.	.	.	.	.	.	.	.	.	.	.	.	.
.	.	.	.	.	.	.	.	.	.	.	.	.	.	.	16BB-y/	.	.	.	.	.	.	.	.	.	.	.	.	.	.	.	.	.	.	.	.	.
.	.	.	.	.	.	.	8f\)	8a-\)	8dd\)	.	8f 8A-\)	8a-/	8dd\)	.	16BB-y/	.	.	.	8dd/	8a-\	.	.	.	.	8f 8B-/	.	8ff/	8b-\	.	8dd/)	8a-\	.	8dd\)yy	.	8dd\)	.
.	.	.	.	.	.	.	.	.	.	.	.	.	.	.	16BB-y/JJ	.	.	.	.	.	.	.	.	.	.	.	.	.	.	.	.	.	.	.	.	.
*	*	*	*	*	*	*	*	*	*	*	*	*	*	*	*Xtremolo	*	*	*	*	*	*	*	*	*	*	*	*	*	*	*	*	*	*	*	*	*
4E-\)	.	4E-\)yy	.	4E-\	-sis	.	4e-\	4g\	4ee-\	-sis	4e- 4G\	4g/	4ee-\	.	4E-y\	.	4e-) 4G) 4E-\)	.	4ee-/	4g\	.	4B-/)	4B- 4E-\	.	4e- 4G/	.	4ee-/	4b-\	.	4ee-/	4g\	.	4ee-\yy	.	4ee-\	.
8E-\	.	8E-\yy	.	8E-\	o-	.	8G/	8r	8r	.	8r	8r	8r	.	8r	.	8r	.	8b-/	8g\	.	8G 8E-\	8E-\yy	.	8g 8e-\	.	8r	8ryy	.	8r	8ryy	.	8ryy	.	8r	.
*	*	*	*	*	*	*	*	*	*	*	*	*	*	*	*	*	*	*	*	*	*	*	*	*	*	*	*v	*v	*	*	*	*	*	*	*	*
=22	=22	=22	=22	=22	=22	=22	=22	=22	=22	=22	=22	=22	=22	=22	=22	=22	=22	=22	=22	=22	=22	=22	=22	=22	=22	=22	=22	=22	=22	=22	=22	=22	=22	=22	=22
(4G\	.	(y4G\yy	.	(4G\	-san-	.	(4B-/	4r	4r	.	4r	4r	4r	.	4r	.	4r	.	(4b-/	4g\	.	(4B- [4G\	2ryy	.	(4b- 4g\	.	4r	.	4r	4ryy	.	4ryy	.	4r	.
8E-\	.	8E-\yy	.	8E-\	.	.	8G/)	8r	8r	.	8r	8r	8r	.	8r	.	8r	.	8g/)	8e-\	.	8G] 8E-\)	.	.	8g 8e-\)	.	8r	.	8r	8ryy	.	8ryy	.	8r	.
8G\)	.	8G\)yy	.	8G\)	-na	.	8B-/	8r	8r	.	8r	8r	8r	.	8r	.	8r	.	8b-/	8g\	.	8B- 8G\	.	.	8b- 8g\	.	8r	.	8r	8ryy	.	8ryy	.	8r	.
8G'\L	.	8G'\Lyy	.	8G\	in	.	8B-/	8b-\	8ee-\	in	8B-L 8G'/	8b-/L	8ee-'\L	.	8E-y\L	.	8B-L 8G'\	.	8e-/L	4ryy	.	8G/L	8G\L	.	8gL 8e-'/	.	8b-\L	.	8ee-/L	8b-\L	.	8ee-'\Lyy	.	8ee-'\L	.
8E-'\J	.	8E-'\Jyy	.	8E-\	ex-	.	8e-\	8b-\	8gg\	ex-	8e-J 8B- 8G'/	8b-/J	8gg'\J	.	8E-y\J	.	8e-J 8G 8E-'\	.	8g/J	.	.	8E-/J	8E-\J	.	8e-J 8B-'/	.	8ee-J 8b-\	.	8gg/J	8b-\J	.	8gg'\Jyy	.	8gg'\J	.
*	*	*	*	*	*	*	*	*	*	*	*	*	*	*	*	*	*	*	*	*	*	*v	*v	*	*	*	*	*	*	*	*	*	*	*	*
=23	=23	=23	=23	=23	=23	=23	=23	=23	=23	=23	=23	=23	=23	=23	=23	=23	=23	=23	=23	=23	=23	=23	=23	=23	=23	=23	=23	=23	=23	=23	=23	=23	=23	=23
*	*	*	*	*	*	*	*	*	*	*	*	*	*	*	*	*	*	*	*	*	*	*	*	*	*	*^	*	*	*	*	*	*	*	*
*	*	*	*	*	*	*	*	*	*	*	*	*	*	*	*tremolo	*	*	*	*	*	*	*	*	*	*	*	*	*	*	*	*	*	*	*	*
!	!	!	!	!	!	!	!	!	!	!	!	!	!	!	!	!	!LO:S:s=2:note:problem=note-level slur	!	!	!	!	!	!	!LO:N:vis=4.	!	!	!	!	!	!	!	!	!	!	!
4.BB-/	.	4.BB-/yy	.	4.BB-/	-cael-	.	(4d\	(4b-\	(4bb-\	-cael-	(>4d 4F/	(>4b-/	(4bb-\	.	16BB-y/LL	.	(4.d (4.F (4.BB-\	.	4b-/	4b-\	.	4.B- 4.BB-\	.	4f 4B-/	.	4dd/	4b-\	.	(4bb-/	4b-\	.	(y4bb-\yy	.	(4bb-\	.
.	.	.	.	.	.	.	.	.	.	.	.	.	.	.	16BB-y/	.	.	.	.	.	.	.	.	.	.	.	.	.	.	.	.	.	.	.	.
.	.	.	.	.	.	.	.	.	.	.	.	.	.	.	16BB-y/	.	.	.	.	.	.	.	.	.	.	.	.	.	.	.	.	.	.	.	.
.	.	.	.	.	.	.	.	.	.	.	.	.	.	.	16BB-y/	.	.	.	.	.	.	.	.	.	.	.	.	.	.	.	.	.	.	.	.
.	.	.	.	.	.	.	8f\)	8a-\)	8dd\)	.	8f 8A-/	8a-/	8dd\)	.	16BB-y/	.	.	.	8dd/	8a-\	.	.	.	8f 8B-/	.	8ff/	8b-\	.	8dd/)	8a-\	.	8dd\)yy	.	8dd\)	.
.	.	.	.	.	.	.	.	.	.	.	.	.	.	.	16BB-y/JJ	.	.	.	.	.	.	.	.	.	.	.	.	.	.	.	.	.	.	.	.
*	*	*	*	*	*	*	*	*	*	*	*	*	*	*	*Xtremolo	*	*	*	*	*	*	*	*	*	*	*	*	*	*	*	*	*	*	*	*
8E-\	.	8E-\yy	.	8E-\	-sis	.	8e-\	8g\	8ee-\	-sis	8e- 8G/)	8g/)	8ee-\	.	8E-y\	.	8e-) 8G) 8E-\)	.	8ee-/	8g\	.	8B- 8G\	.	8g 8e-\	.	8ee-/	8b-\	.	8ee- 8g/	4.ryy	.	8ee-\yy	.	8ee-\	.
8G'\L	.	8G'\Lyy	.	8G\	in	.	8g\	8g\	8gg\	.	8g'\L	8g'/L	8gg'\L	.	8r	.	8G\L	.	8g'/L	4ryy	.	8G'\L	.	8g\L	.	8g/L	4ryy	.	8gg'\L	.	.	8gg'\Lyy	.	8gg'\L	.
8E-'\J	.	8E-'\Jyy	.	8E-\	ex-	.	8e-\	8e-\	8ee-\	.	8e-'\J	8e-'/J	8ee-'\J	.	8r	.	8E-\J	.	8e-'/J	.	.	8E-'\J	.	8e-\J	.	8e-/J	.	.	8ee-'\J	.	.	8ee-'\Jyy	.	8ee-'\J	.
=24	=24	=24	=24	=24	=24	=24	=24	=24	=24	=24	=24	=24	=24	=24	=24	=24	=24	=24	=24	=24	=24	=24	=24	=24	=24	=24	=24	=24	=24	=24	=24	=24	=24	=24	=24
*	*	*	*	*	*	*	*	*	*	*	*	*	*	*	*tremolo	*	*	*	*	*	*	*	*	*	*	*	*	*	*	*	*	*	*	*	*
4B-\	.	4B-\yy	.	(4B-\	-cael-	.	(4B-\	4.b-\	4.bb-\	.	4B-/	(4b-\	(4.bb-\	.	16BB-y/LL	.	4B- 4BB-\	.	(4.b-/	4.b-\	.	4B-\	.	4b- 4B-\	.	(4b-/	4b-\	.	(4.bb-/	4b-\	.	(y4.bb-\yy	.	(4.bb-\	.
.	.	.	.	.	.	.	.	.	.	.	.	.	.	.	16BB-y/	.	.	.	.	.	.	.	.	.	.	.	.	.	.	.	.	.	.	.	.
.	.	.	.	.	.	.	.	.	.	.	.	.	.	.	16BB-y/	.	.	.	.	.	.	.	.	.	.	.	.	.	.	.	.	.	.	.	.
.	.	.	.	.	.	.	.	.	.	.	.	.	.	.	16BB-y/	.	.	.	.	.	.	.	.	.	.	.	.	.	.	.	.	.	.	.	.
8BB-/	.	8BB-/yy	.	8BB-/)	.	.	8d\)	.	.	.	8f 8B-\	8dd\)	.	.	16BB-y/	.	8d 8F 8BB-\	.	.	.	.	8F 8BB-\	.	8f 8B-\	.	8dd/)	8b-\	.	.	8dd\	.	.	.	.	.
.	.	.	.	.	.	.	.	.	.	.	.	.	.	.	16BB-y/JJ	.	.	.	.	.	.	.	.	.	.	.	.	.	.	.	.	.	.	.	.
*	*	*	*	*	*	*	*	*	*	*	*	*	*	*	*Xtremolo	*	*	*	*	*	*	*	*	*	*	*	*	*	*	*	*	*	*	*	*
8E-\	.	8E-\yy	.	8E-\	-sis	.	8e-\	8b-\	8gg\	.	8g 8B-\	8ee-\	8gg\)	.	8E-y\	.	8e- 8G 8E-\	.	8g/)	8g\	.	8G 8E-\	.	8g 8e-\	.	8ee-/	8b-\	.	8gg/)	8ee-\	.	8gg\yy	.	8gg\	.
8G\L	.	8G\Lyy	.	8G\	in	.	8g\	8g\	8gg\	.	8g'\L	8g'/L	8gg'\L	.	8r	.	8G'\L	.	8g'/L	4ryy	.	8G\L	.	8g'\L	.	8g/L	4ryy	.	8gg'\L	4ryy	.	8gg'\L)yy	.	8gg'\L)	.
8E-\J	.	8E-\Jyy	.	8E-\	ex	.	8e-\	8e-\	8ee-\	.	8e-'\J	8e-'/J	8ee-'\J	.	8r	.	8E-'\J	.	8e-'/J	.	.	8E-\J	.	8e-'\J	.	8e-/J	.	.	8ee-'\J	.	.	8ee-'\Jyy	.	8ee-'\J	.
*	*	*	*	*	*	*	*	*	*	*	*	*	*	*	*	*	*	*	*	*	*	*	*	*	*	*	*	*	*v	*v	*	*	*	*	*
!!LO:PB:g=original
=25	=25	=25	=25	=25	=25	=25	=25	=25	=25	=25	=25	=25	=25	=25	=25	=25	=25	=25	=25	=25	=25	=25	=25	=25	=25	=25	=25	=25	=25	=25	=25	=25	=25	=25
4B-\	.	4B-\yy	.	(4.B-\	.	.	4.B-\	(4.b-\	(4.bb-\	cael-	4B-/	4b-\	4bb-\	.	4BB-y/	.	4B-\	.	4b-/	4b-\	.	4B- 4BB-\	.	4b- 4B-\	.	4b-/	4b-\	.	4bb-\	.	4bb-\yy	.	4bb-\	.
8r	.	8ryy	.	.	.	.	.	.	.	.	8r	8r	8r	.	8r	.	8r	.	8r	2ryy	.	8r	.	8r	.	8r	2ryy	.	8r	.	8ryy	.	8r	.
4BB-/	.	4BB-/yy	.	4.BB-/)	.	.	4.f\	4.a-\)	4.dd\)	.	4f 4B-/	4aa- 4b- 4d\	4ddd 4ff\	.	4BB-y/	.	4d 4A- 4BB-\	.	4dd 4f/	.	.	4B- 4BB-\	.	4f 4B-/	.	4dd 4a-\	.	.	4aa- 4ff\	.	4ddd\yy	.	4ddd\	.
!	!	!	!	!	!	!	!	!	!	!	!	!	!	!	!	!	!	!	!	!	!	!	!	!	!	!	!	!	!	!	!	!	!LO:TX:t=P:problem=odsyłacz B dopisany ołówkiem [odnosi się do karty nr 0057 - jeden takt]	!
8r	.	8ryy	.	.	.	.	.	.	.	.	8r	8r	8r	.	8r	.	8r	.	8r	.	.	8r	.	8r	.	8r	.	.	8r	.	8ryy	.	8r	.
*	*	*	*	*	*	*	*	*	*	*	*	*	*	*	*	*	*	*	*v	*v	*	*	*	*	*	*	*	*	*	*	*	*	*	*
!!LO:PB:g=original
=26||	=26||	=26||	=26||	=26||	=26||	=26||	=26||	=26||	=26||	=26||	=26||	=26||	=26||	=26||	=26||	=26||	=26||	=26||	=26||	=26||	=26||	=26||	=26||	=26||	=26||	=26||	=26||	=26||	=26||	=26||	=26||	=26||	=26||
*	*	*	*	*	*	*	*	*	*	*	*	*	*	*	*	*	*	*	*	*	*	*	*^	*	*	*	*	*^	*	*	*	*	*
!	!	!	!	!	!	!	!	!	!	!	!	!	!	!	!	!	!	!	!	!	!	!	!	!	!	!	!	!	!	!	!	!	!	!LO:TX:a:B:t=Andante.	!
4E-\	.	4E-\yy	.	4E-\	.	.	4e-\	4g\	4ee-\	-sis.	4g 4B- 4E-\	4gg 4b- 4e-\	4eee- 4ee-\	.	4E-y\	.	4e- 4G 4E-\	.	4ee- 4g\	.	4B- 4E-\	.	4g/	4e-\	.	4ee- 4g\	4.ryy	.	4gg 4ee-\	4.ryy	.	4eee-\yy	.	4eee-\	.
8r	.	8ryy	.	8r	.	.	8r	8r	8r	.	8r	8r	8r	.	8r	.	8r	.	8r	.	8r	.	8r	8ryy	.	8r	.	.	8r	.	.	8ryy	.	8r	.
4r	.	4ryy	.	4r	.	.	4r	4r	4r	.	4r	4r	4r	.	4r	.	4r	.	4r	.	4r	.	4r	4ryy	.	4r	4ryy	.	4r	4ryy	.	4ryy	.	4r	.
8r	.	8ryy	.	8r	.	.	8r	8r	8r	.	8r	8r	8r	.	8r	.	8r	.	8r	.	8r	.	8r	8ryy	.	8ff/|	8dd\	.	8bbn/|	8gg\	.	(y8bbn^<\yy	.	(8bbn^<\	.
*	*	*	*	*	*	*	*	*	*	*	*	*	*	*	*	*	*	*	*	*	*	*	*v	*v	*	*	*	*	*	*	*	*	*	*	*
=27	=27	=27	=27	=27	=27	=27	=27	=27	=27	=27	=27	=27	=27	=27	=27	=27	=27	=27	=27	=27	=27	=27	=27	=27	=27	=27	=27	=27	=27	=27	=27	=27	=27	=27
2.ryy	.	2.ryyyy	.	2.ryy	.	.	2.ryy	2.ryy	2.ryy	.	2.ryy	2.ryy	2.ryy	.	2.ryy	.	2.ryy	.	2.ryy	.	2.ryy	.	2.ryy	.	(4ee-/	4ee-\	.	(4ccc/	4.gg\	.	(y4ccc\yy	.	(4ccc\	.
.	.	.	.	.	.	.	.	.	.	.	.	.	.	.	.	.	.	.	.	.	.	.	.	.	8eeX/)	8ee\	.	8bb-X/	.	.	8bb-X\))yy	.	8bb-X\))	.
.	.	.	.	.	.	.	.	.	.	.	.	.	.	.	.	.	.	.	.	.	.	.	.	.	4ff/	4ff\	.	4aa-/)	4.ff\	.	4aa-\yy	.	4aa-\	.
.	.	.	.	.	.	.	.	.	.	.	.	.	.	.	.	.	.	.	.	.	.	.	.	.	8ee-/|	8ee-\	.	(8aan/|	.	.	(y8aan\yy	.	(8aan\	.
=28	=28	=28	=28	=28	=28	=28	=28	=28	=28	=28	=28	=28	=28	=28	=28	=28	=28	=28	=28	=28	=28	=28	=28	=28	=28	=28	=28	=28	=28	=28	=28	=28	=28	=28
2.ryy	.	2.ryyyy	.	2.ryy	.	.	2.ryy	2.ryy	2.ryy	.	2.ryy	2.ryy	2.ryy	.	2.ryy	.	2.ryy	.	2.ryy	.	2.ryy	.	2.ryy	.	4.dd/	4.dd\	.	4bb-/	4.ff\	.	4bb-\yy	.	4bb-\	.
.	.	.	.	.	.	.	.	.	.	.	.	.	.	.	.	.	.	.	.	.	.	.	.	.	.	.	.	8aa-X/)	.	.	8aa-X\)yy	.	8aa-X\)	.
.	.	.	.	.	.	.	.	.	.	.	.	.	.	.	.	.	.	.	.	.	.	.	.	.	4ee-/	4ee-\	.	(8gg/L	4ee-\	.	8gg\Lyy	.	8gg\L	.
.	.	.	.	.	.	.	.	.	.	.	.	.	.	.	.	.	.	.	.	.	.	.	.	.	.	.	.	32aa-/LL	.	.	(y32aa-\LLyy	.	(32aa-\LL	.
.	.	.	.	.	.	.	.	.	.	.	.	.	.	.	.	.	.	.	.	.	.	.	.	.	.	.	.	32gg/	.	.	32gg\yy	.	32gg\	.
.	.	.	.	.	.	.	.	.	.	.	.	.	.	.	.	.	.	.	.	.	.	.	.	.	.	.	.	32ff#X/	.	.	32ff#X\yy	.	32ff#X\	.
.	.	.	.	.	.	.	.	.	.	.	.	.	.	.	.	.	.	.	.	.	.	.	.	.	.	.	.	32gg/JJJ	.	.	32gg\JJJyy	.	32gg\JJJ	.
.	.	.	.	.	.	.	.	.	.	.	.	.	.	.	.	.	.	.	.	.	.	.	.	.	8cc/	8cc\	.	16.bb-/LL)	8ee-\	.	16.bb-\LLyy	.	16.bb-\LL	.
.	.	.	.	.	.	.	.	.	.	.	.	.	.	.	.	.	.	.	.	.	.	.	.	.	.	.	.	32aa-/JJk|	.	.	32aa-\JJk)|yy	.	32aa-\JJk)|	.
=29	=29	=29	=29	=29	=29	=29	=29	=29	=29	=29	=29	=29	=29	=29	=29	=29	=29	=29	=29	=29	=29	=29	=29	=29	=29	=29	=29	=29	=29	=29	=29	=29	=29	=29
2.ryy	.	2.ryyyy	.	2.ryy	.	.	2.ryy	2.ryy	2.ryy	.	2.ryy	2.ryy	2.ryy	.	2.ryy	.	2.ryy	.	2.ryy	.	2.ryy	.	2.ryy	.	4b-/	4b-\	.	4gg/	4ee-\	.	(y4gg\yy	.	(4gg\	.
.	.	.	.	.	.	.	.	.	.	.	.	.	.	.	.	.	.	.	.	.	.	.	.	.	8b-/	8a-\	.	8ff/	8dd\	.	8ff\)yy	.	8ff\)	.
.	.	.	.	.	.	.	.	.	.	.	.	.	.	.	.	.	.	.	.	.	.	.	.	.	4b-/	4.g\	.	4.gg/	4.ee-\	.	4bb-\yy	.	4bb-\	.
.	.	.	.	.	.	.	.	.	.	.	.	.	.	.	.	.	.	.	.	.	.	.	.	.	8bX/	.	.	.	.	.	8bbn\yy	.	8bbn\	.
!!LO:PB:g=original
=30	=30	=30	=30	=30	=30	=30	=30	=30	=30	=30	=30	=30	=30	=30	=30	=30	=30	=30	=30	=30	=30	=30	=30	=30	=30	=30	=30	=30	=30	=30	=30	=30	=30	=30
*	*	*	*	*	*	*	*	*	*	*	*	*	*	*	*	*	*	*	*	*	*^	*	*^	*	*	*	*	*	*	*	*	*	*	*
2.ryy	.	2.ryyyy	.	2.ryy	.	.	2.ryy	2.ryy	2.ryy	.	2.ryy	2.ryy	2.ryy	.	2.ryy	.	2.ryy	.	2.ryy	.	8r	8ryy	.	8r	8ryy	.	4cc/	4a-\	.	4gg/	4ee-\	.	4ccc\yy	.	4ccc\	.
.	.	.	.	.	.	.	.	.	.	.	.	.	.	.	.	.	.	.	.	.	8r	8ryy	.	8r	8ryy	.	.	.	.	.	.	.	.	.	.	.
!	!	!	!	!	!	!	!	!	!	!	!	!	!	!	!	!	!	!	!	!	!LO:TX:b:t=P:problem=diminuendolike accent	!	!	!LO:TX:b:t=P:problem=diminuendolike accent	!	!	!	!	!	!	!	!	!	!	!	!
.	.	.	.	.	.	.	.	.	.	.	.	.	.	.	.	.	.	.	.	.	8c/	8An^\	.	8g-X/	8e-^\	.	8ee-/	8a\	.	8ccc/	8gg-X\	.	8eee-\yy	.	8eee-\	.
.	.	.	.	.	.	.	.	.	.	.	.	.	.	.	.	.	.	.	.	.	4B-/	4B-\	.	4g/	4e-\	.	8.ee-/L	4b-\	.	8.bb-/L	8.ggn\L	.	8.eee-\Lyy	.	8.eee-\L	.
.	.	.	.	.	.	.	.	.	.	.	.	.	.	.	.	.	.	.	.	.	.	.	.	.	.	.	16ee-/L	.	.	16gg/L	16ee-\L	.	(y16gg\Lyy	.	(16gg\L	.
.	.	.	.	.	.	.	.	.	.	.	.	.	.	.	.	.	.	.	.	.	8r	8ryy	.	8r	8ryy	.	16ff/	8r	.	16aa-/	16ff\	.	16aa-\yy	.	16aa-\	.
.	.	.	.	.	.	.	.	.	.	.	.	.	.	.	.	.	.	.	.	.	.	.	.	.	.	.	16ff#X/JJ	.	.	16aan/JJ	16ff#X\JJ	.	16aan\JJyy	.	16aan\JJ	.
*	*	*	*	*	*	*	*	*	*	*	*	*	*	*	*	*	*	*	*	*	*v	*v	*	*	*	*	*	*	*	*	*	*	*	*	*	*
*	*	*	*	*	*	*	*	*	*	*	*	*	*	*	*	*	*	*	*	*	*	*	*v	*v	*	*	*	*	*	*	*	*	*	*	*
=31	=31	=31	=31	=31	=31	=31	=31	=31	=31	=31	=31	=31	=31	=31	=31	=31	=31	=31	=31	=31	=31	=31	=31	=31	=31	=31	=31	=31	=31	=31	=31	=31	=31	=31
2.ryy	.	2.ryyyy	.	2.ryy	.	.	2.ryy	2.ryy	2.ryy	.	2.ryy	2.ryy	2.ryy	.	2.ryy	.	2.ryy	.	2.ryy	.	2.r	.	2.r	.	(<8.aa-/L	2.rc	.	8.ccc/L	8.aa-\L	.	8.ccc\L)yy	.	8.ccc\L)	.
.	.	.	.	.	.	.	.	.	.	.	.	.	.	.	.	.	.	.	.	.	.	.	.	.	16gg/Jk)	.	.	16bb-/Jk	16gg\Jk	.	16bb-\Jkyy	.	16bb-\Jk	.
.	.	.	.	.	.	.	.	.	.	.	.	.	.	.	.	.	.	.	.	.	.	.	.	.	(<32aa-/LLL	.	.	8ryy	8ryy	.	8ryyyy	.	8ryy	.
.	.	.	.	.	.	.	.	.	.	.	.	.	.	.	.	.	.	.	.	.	.	.	.	.	32gg/	.	.	.	.	.	.	.	.	.
.	.	.	.	.	.	.	.	.	.	.	.	.	.	.	.	.	.	.	.	.	.	.	.	.	32ff/	.	.	.	.	.	.	.	.	.
.	.	.	.	.	.	.	.	.	.	.	.	.	.	.	.	.	.	.	.	.	.	.	.	.	32ee-/JJJ	.	.	.	.	.	.	.	.	.
.	.	.	.	.	.	.	.	.	.	.	.	.	.	.	.	.	.	.	.	.	.	.	.	.	32dd/LLL	.	.	4.ryy	4.ryy	.	4.ryyyy	.	4.ryy	.
.	.	.	.	.	.	.	.	.	.	.	.	.	.	.	.	.	.	.	.	.	.	.	.	.	32cc/	.	.	.	.	.	.	.	.	.
.	.	.	.	.	.	.	.	.	.	.	.	.	.	.	.	.	.	.	.	.	.	.	.	.	32b-/	.	.	.	.	.	.	.	.	.
.	.	.	.	.	.	.	.	.	.	.	.	.	.	.	.	.	.	.	.	.	.	.	.	.	32a-/JJJ	.	.	.	.	.	.	.	.	.
.	.	.	.	.	.	.	.	.	.	.	.	.	.	.	.	.	.	.	.	.	.	.	.	.	32g/LLL	.	.	.	.	.	.	.	.	.
.	.	.	.	.	.	.	.	.	.	.	.	.	.	.	.	.	.	.	.	.	.	.	.	.	32f/	.	.	.	.	.	.	.	.	.
.	.	.	.	.	.	.	.	.	.	.	.	.	.	.	.	.	.	.	.	.	.	.	.	.	32e-/	.	.	.	.	.	.	.	.	.
.	.	.	.	.	.	.	.	.	.	.	.	.	.	.	.	.	.	.	.	.	.	.	.	.	32d/JJJ	.	.	.	.	.	.	.	.	.
.	.	.	.	.	.	.	.	.	.	.	.	.	.	.	.	.	.	.	.	.	.	.	.	.	32c/KLL)	.	.	.	.	.	.	.	.	.
.	.	.	.	.	.	.	.	.	.	.	.	.	.	.	.	.	.	.	.	.	.	.	.	.	16c-X^/	.	.	.	.	.	.	.	.	.
.	.	.	.	.	.	.	.	.	.	.	.	.	.	.	.	.	.	.	.	.	.	.	.	.	32B-/JJk	.	.	.	.	.	.	.	.	.
*	*	*	*	*	*	*	*	*	*	*	*	*	*	*	*	*	*	*	*	*	*	*	*	*	*	*	*	*v	*v	*	*	*	*	*
=32	=32	=32	=32	=32	=32	=32	=32	=32	=32	=32	=32	=32	=32	=32	=32	=32	=32	=32	=32	=32	=32	=32	=32	=32	=32	=32	=32	=32	=32	=32	=32	=32	=32
2.ryy	.	2.ryyyy	.	2.ryy	.	.	2.ryy	2.ryy	2.ryy	.	2.ryy	2.ryy	2.ryy	.	2.ryy	.	2.ryy	.	2.ryy	.	2.r;	.	2.r;	.	(<32G/LLL	2.rc	.	2.ryy	.	2.ryyyy	.	2.ryy	.
.	.	.	.	.	.	.	.	.	.	.	.	.	.	.	.	.	.	.	.	.	.	.	.	.	32B-/	.	.	.	.	.	.	.	.
.	.	.	.	.	.	.	.	.	.	.	.	.	.	.	.	.	.	.	.	.	.	.	.	.	32c/	.	.	.	.	.	.	.	.
.	.	.	.	.	.	.	.	.	.	.	.	.	.	.	.	.	.	.	.	.	.	.	.	.	32B-/JJJ	.	.	.	.	.	.	.	.
.	.	.	.	.	.	.	.	.	.	.	.	.	.	.	.	.	.	.	.	.	.	.	.	.	32e-/LLL	.	.	.	.	.	.	.	.
.	.	.	.	.	.	.	.	.	.	.	.	.	.	.	.	.	.	.	.	.	.	.	.	.	32d/JJ)	.	.	.	.	.	.	.	.
.	.	.	.	.	.	.	.	.	.	.	.	.	.	.	.	.	.	.	.	.	.	.	.	.	(<8g/	.	.	.	.	.	.	.	.
.	.	.	.	.	.	.	.	.	.	.	.	.	.	.	.	.	.	.	.	.	.	.	.	.	16f/Jk)	.	.	.	.	.	.	.	.
.	.	.	.	.	.	.	.	.	.	.	.	.	.	.	.	.	.	.	.	.	.	.	.	.	32a/LLL	.	.	.	.	.	.	.	.
.	.	.	.	.	.	.	.	.	.	.	.	.	.	.	.	.	.	.	.	.	.	.	.	.	32b-/	.	.	.	.	.	.	.	.
.	.	.	.	.	.	.	.	.	.	.	.	.	.	.	.	.	.	.	.	.	.	.	.	.	32cc/	.	.	.	.	.	.	.	.
.	.	.	.	.	.	.	.	.	.	.	.	.	.	.	.	.	.	.	.	.	.	.	.	.	32b-/JJJ	.	.	.	.	.	.	.	.
.	.	.	.	.	.	.	.	.	.	.	.	.	.	.	.	.	.	.	.	.	.	.	.	.	32ee-/LLL	.	.	.	.	.	.	.	.
.	.	.	.	.	.	.	.	.	.	.	.	.	.	.	.	.	.	.	.	.	.	.	.	.	32dd/JJ	.	.	.	.	.	.	.	.
.	.	.	.	.	.	.	.	.	.	.	.	.	.	.	.	.	.	.	.	.	.	.	.	.	8gg;/	.	.	.	.	.	.	.	.
.	.	.	.	.	.	.	.	.	.	.	.	.	.	.	.	.	.	.	.	.	.	.	.	.	16ff/Jk	.	.	.	.	.	.	.	.
*	*	*	*	*	*	*	*	*	*	*	*	*	*	*	*	*	*	*	*	*	*	*	*	*	*v	*v	*	*	*	*	*	*	*
==	==	==	==	==	==	==	==	==	==	==	==	==	==	==	==	==	==	==	==	==	==	==	==	==	==	==	==	==	==	==	==	==
*-	*-	*-	*-	*-	*-	*-	*-	*-	*-	*-	*-	*-	*-	*-	*-	*-	*-	*-	*-	*-	*-	*-	*-	*-	*-	*-	*-	*-	*-	*-	*-	*-
!!!system-decoration: <(s1,s2,s3,s4,s5,s6,s7,s8,s9)>{(g1)}{g2}{(s17,s18)}
!!!RDF**kern: > = above
!!!RDF**kern: < = below
!!!RDF**kern: | = vertical stroke
!!!ENC: Andrzej Kubiczek
!!!END: 2021-05-06
!!!ENC: Mateusz Solarz
!!!END: 2021-04-14
